looks/curve1_75.spi1d
Version 1
From 0.0 1.0
Length  4096
Components 1
{
         -5.83481739218e-20
         2.22327728916e-05
         4.45078228236e-05
         6.6825410062e-05
         8.91857924263e-05
         0.000111589225303
         0.000134035961657
         0.000156526252047
         0.000179060344637
         0.000201638485207
         0.000224260917173
         0.000246927881589
         0.000269639617173
         0.000292396360307
         0.000315198345061
         0.000338045803198
         0.000360938964191
         0.000383878055236
         0.000406863301262
         0.000429894924948
         0.000452973146732
         0.000476098184828
         0.000499270255234
         0.000522489571751
         0.000545756345989
         0.000569070787386
         0.00059243310322
         0.000615843498617
         0.000639302176569
         0.000662809337948
         0.000686365181512
         0.000709969903926
         0.00073362369977
         0.000757326761552
         0.000781079279726
         0.000804881442696
         0.000828733436839
         0.00085263544651
         0.00087658765406
         0.000900590239846
         0.000924643382245
         0.000948747257668
         0.00097290204057
         0.000997107903467
         0.00102136501695
         0.00104567354968
         0.00107003366843
         0.00109444553809
         0.00111890932165
         0.00114342518026
         0.00116799327321
         0.00119261375795
         0.0012172867901
         0.00124201252349
         0.00126679111013
         0.00129162270025
         0.00131650744232
         0.00134144548303
         0.00136643696733
         0.00139148203845
         0.00141658083789
         0.00144173350542
         0.00146694017916
         0.00149220099551
         0.00151751608921
         0.00154288559336
         0.0015683096394
         0.00159378835714
         0.00161932187479
         0.00164491031894
         0.00167055381458
         0.00169625248515
         0.00172200645249
         0.00174781583693
         0.00177368075721
         0.0017996013306
         0.0018255776728
         0.00185160989805
         0.00187769811908
         0.00190384244716
         0.00193004299209
         0.00195629986223
         0.00198261316448
         0.00200898300435
         0.00203540948592
         0.00206189271187
         0.00208843278351
         0.00211502980078
         0.00214168386224
         0.00216839506513
         0.00219516350535
         0.00222198927746
         0.00224887247475
         0.00227581318919
         0.00230281151147
         0.00232986753104
         0.00235698133606
         0.00238415301348
         0.00241138264899
         0.00243867032708
         0.00246601613106
         0.002493420143
         0.00252088244384
         0.00254840311333
         0.00257598223009
         0.00260361987157
         0.00263131611413
         0.00265907103299
         0.0026868847023
         0.00271475719509
         0.00274268858334
         0.00277067893797
         0.00279872832884
         0.00282683682479
         0.00285500449363
         0.00288323140217
         0.0029115176162
         0.00293986320056
         0.0029682682191
         0.00299673273473
         0.0030252568094
         0.00305384050414
         0.00308248387905
         0.00311118699334
         0.00313994990532
         0.00316877267243
         0.00319765535123
         0.00322659799744
         0.00325560066593
         0.00328466341075
         0.00331378628515
         0.00334296934154
         0.00337221263158
         0.00340151620614
         0.00343088011532
         0.00346030440848
         0.00348978913426
         0.00351933434054
         0.00354894007452
         0.00357860638269
         0.00360833331085
         0.00363812090415
         0.00366796920707
         0.00369787826342
         0.00372784811643
         0.00375787880866
         0.00378797038209
         0.0038181228781
         0.00384833633749
         0.0038786108005
         0.00390894630679
         0.00393934289551
         0.00396980060526
         0.00400031947413
         0.00403089953972
         0.0040615408391
         0.00409224340892
         0.00412300728532
         0.00415383250401
         0.00418471910026
         0.0042156671089
         0.00424667656438
         0.00427774750071
         0.00430887995154
         0.00434007395015
         0.00437132952944
         0.00440264672198
         0.00443402555999
         0.00446546607538
         0.00449696829976
         0.00452853226441
         0.00456015800036
         0.00459184553837
         0.00462359490892
         0.00465540614226
         0.00468727926842
         0.00471921431719
         0.00475121131816
         0.00478327030075
         0.00481539129417
         0.00484757432749
         0.00487981942961
         0.00491212662929
         0.00494449595517
         0.00497692743579
         0.00500942109955
         0.00504197697479
         0.00507459508978
         0.0051072754727
         0.0051400181517
         0.00517282315491
         0.00520569051039
         0.00523862024623
         0.0052716123905
         0.0053046669713
         0.00533778401676
         0.00537096355502
         0.00540420561432
         0.00543751022294
         0.00547087740923
         0.00550430720166
         0.00553779962879
         0.00557135471931
         0.00560497250202
         0.00563865300589
         0.00567239626003
         0.00570620229374
         0.00574007113648
         0.00577400281792
         0.00580799736794
         0.00584205481664
         0.00587617519435
         0.00591035853167
         0.00594460485943
         0.00597891420876
         0.00601328661107
         0.00604772209805
         0.00608222070175
         0.00611678245449
         0.00615140738898
         0.00618609553824
         0.00622084693569
         0.0062556616151
         0.00629053961066
         0.00632548095692
         0.0063604856889
         0.00639555384202
         0.00643068545213
         0.00646588055557
         0.00650113918913
         0.00653646139007
         0.00657184719618
         0.00660729664572
         0.00664280977749
         0.00667838663081
         0.00671402724558
         0.00674973166222
         0.00678549992174
         0.00682133206573
         0.0068572281364
         0.00689318817653
         0.00692921222956
         0.00696530033955
         0.00700145255122
         0.00703766890995
         0.00707394946179
         0.00711029425348
         0.00714670333247
         0.00718317674692
         0.00721971454571
         0.00725631677848
         0.00729298349561
         0.00732971474825
         0.00736651058833
         0.00740337106857
         0.00744029624249
         0.00747728616445
         0.00751434088962
         0.00755146047402
         0.00758864497454
         0.00762589444892
         0.0076632089558
         0.00770058855471
         0.00773803330608
         0.00777554327128
         0.0078131185126
         0.0078507590933
         0.00788846507757
         0.0079262365306
         0.00796407351855
         0.00800197610859
         0.0080399443689
         0.00807797836868
         0.00811607817819
         0.00815424386871
         0.00819247551261
         0.00823077318334
         0.0082691369554
         0.00830756690445
         0.00834606310723
         0.00838462564163
         0.00842325458665
         0.00846195002249
         0.00850071203048
         0.00853954069316
         0.00857843609424
         0.00861739831866
         0.00865642745256
         0.00869552358333
         0.00873468679959
         0.00877391719124
         0.00881321484943
         0.00885257986661
         0.00889201233652
         0.00893151235421
         0.00897108001607
         0.0090107154198
         0.00905041866448
         0.00909018985052
         0.00913002907974
         0.00916993645532
         0.00920991208185
         0.00924995606535
         0.00929006851325
         0.00933024953443
         0.00937049923921
         0.00941081773939
         0.00945120514825
         0.00949166158055
         0.00953218715257
         0.00957278198209
         0.00961344618845
         0.0096541798925
         0.00969498321666
         0.00973585628485
         0.00977679922246
         0.00981781215632
         0.00985889521465
         0.009900048527
         0.00994127222422
         0.00998256643843
         0.010023931303
         0.0100653669523
         0.0101068735221
         0.0101484511491
         0.0101900999711
         0.0102318201268
         0.0102736117559
         0.0103154749991
         0.010357409998
         0.0103994168948
         0.0104414958328
         0.0104836469558
         0.0105258704084
         0.0105681663358
         0.010610534884
         0.0106529761994
         0.010695490429
         0.0107380777202
         0.0107807382211
         0.0108234720798
         0.0108662794451
         0.010909160466
         0.0109521152919
         0.0109951440721
         0.0110382469565
         0.011081424095
         0.0111246756374
         0.0111680017338
         0.0112114025344
         0.011254878189
         0.0112984288478
         0.0113420546605
         0.0113857557769
         0.0114295323465
         0.0114733845186
         0.0115173124423
         0.0115613162662
         0.0116053961386
         0.0116495522076
         0.0116937846205
         0.0117380935244
         0.0117824790657
         0.0118269413903
         0.0118714806436
         0.01191609697
         0.0119607905134
         0.0120055614172
         0.0120504098235
         0.012095335874
         0.0121403397093
         0.0121854214691
         0.0122305812923
         0.0122758193167
         0.0123211356788
         0.0123665305146
         0.0124120039583
         0.0124575561434
         0.0125031872021
         0.0125488972651
         0.0125946864622
         0.0126405549214
         0.0126865027697
         0.0127325301325
         0.0127786371337
         0.0128248238957
         0.0128710905395
         0.0129174371843
         0.0129638639477
         0.0130103709458
         0.0130569582926
         0.0131036261008
         0.0131503744808
         0.0131972035416
         0.01324411339
         0.0132911041309
         0.0133381758673
         0.0133853287002
         0.0134325627284
         0.0134798780487
         0.0135272747557
         0.0135747529418
         0.0136223126972
         0.0136699541097
         0.013717677265
         0.0137654822462
         0.0138133691342
         0.0138613380073
         0.0139093889412
         0.0139575220094
         0.0140057372825
         0.0140540348287
         0.0141024147134
         0.0141508769993
         0.0141994217464
         0.0142480490118
         0.01429675885
         0.0143455513125
         0.0143944264478
         0.0144433843019
         0.0144924249178
         0.0145415483359
         0.0145907545939
         0.0146400437269
         0.0146894157674
         0.0147388707453
         0.0147884086879
         0.0148380296201
         0.0148877335646
         0.0149375205413
         0.014987390568
         0.01503734366
         0.0150873798307
         0.0151374990908
         0.015187701449
         0.015237986912
         0.0152883554841
         0.0153388071678
         0.0153893419634
         0.0154399598692
         0.0154906608817
         0.0155414449952
         0.0155923122024
         0.0156432624942
         0.0156942958594
         0.0157454122853
         0.0157966117575
         0.0158478942597
         0.0158992597742
         0.0159507082817
         0.0160022397611
         0.0160538541902
         0.0161055515449
         0.0161573317999
         0.0162091949286
         0.0162611409028
         0.0163131696932
         0.0163652812692
         0.0164174755988
         0.016469752649
         0.0165221123856
         0.0165745547732
         0.0166270797756
         0.0166796873552
         0.0167323774736
         0.0167851500917
         0.016838005169
         0.0168909426644
         0.0169439625361
         0.0169970647413
         0.0170502492364
         0.0171035159775
         0.0171568649195
         0.017210296017
         0.0172638092241
         0.017317404494
         0.0173710817797
         0.0174248410336
         0.0174786822078
         0.0175326052538
         0.017586610123
         0.0176406967663
         0.0176948651345
         0.0177491151781
         0.0178034468474
         0.0178578600925
         0.0179123548636
         0.0179669311106
         0.0180215887836
         0.0180763278326
         0.0181311482077
         0.0181860498589
         0.0182410327368
         0.0182960967917
         0.0183512419743
         0.0184064682357
         0.0184617755271
         0.0185171638002
         0.0185726330069
         0.0186281830997
         0.0186838140314
         0.0187395257556
         0.018795318226
         0.0188511913972
         0.0189071452244
         0.0189631796634
         0.0190192946706
         0.0190754902034
         0.0191317662197
         0.0191881226784
         0.0192445595393
         0.019301076763
         0.019357674311
         0.019414352146
         0.0194711102315
         0.0195279485321
         0.0195848670137
         0.0196418656432
         0.0196989443885
         0.0197561032192
         0.0198133421057
         0.0198706610199
         0.0199280599351
         0.0199855388258
         0.0200430976676
         0.0201007364378
         0.0201584551147
         0.020216253678
         0.0202741321087
         0.020332090389
         0.0203901285025
         0.020448246434
         0.0205064441696
         0.0205647216967
         0.020623079004
         0.0206815160815
         0.0207400329202
         0.0207986295127
         0.0208573058527
         0.0209160619353
         0.0209748977567
         0.0210338133144
         0.0210928086071
         0.021151883635
         0.0212110383993
         0.0212702729026
         0.0213295871485
         0.0213889811422
         0.0214484548899
         0.021508008399
         0.0215676416784
         0.0216273547379
         0.0216871475888
         0.0217470202435
         0.0218069727157
         0.0218670050201
         0.021927117173
         0.0219873091917
         0.0220475810945
         0.0221079329014
         0.0221683646332
         0.0222288763122
         0.0222894679616
         0.022350139606
         0.0224108912713
         0.0224717229844
         0.0225326347734
         0.0225936266677
         0.0226546986978
         0.0227158508956
         0.0227770832939
         0.0228383959268
         0.0228997888296
         0.0229612620388
         0.023022815592
         0.023084449528
         0.0231461638869
         0.0232079587097
         0.0232698340389
         0.0233317899178
         0.0233938263911
         0.0234559435047
         0.0235181413055
         0.0235804198416
         0.0236427791622
         0.0237052193179
         0.0237677403601
         0.0238303423415
         0.023893025316
         0.0239557893386
         0.0240186344654
         0.0240815607537
         0.0241445682618
         0.0242076570493
         0.0242708271767
         0.0243340787059
         0.0243974116997
         0.0244608262222
         0.0245243223384
         0.0245879001146
         0.0246515596182
         0.0247153009176
         0.0247791240823
         0.024843029183
         0.0249070162915
         0.0249710854807
         0.0250352368245
         0.0250994703979
         0.0251637862772
         0.0252281845395
         0.0252926652631
         0.0253572285276
         0.0254218744133
         0.0254866030018
         0.0255514143758
         0.025616308619
         0.0256812858161
         0.0257463460531
         0.0258114894168
         0.0258767159953
         0.0259420258776
         0.0260074191538
         0.026072895915
         0.0261384562535
         0.0262041002626
         0.0262698280366
         0.0263356396706
         0.0264015352609
         0.0264675149041
         0.026533578698
         0.0265997267404
         0.02666595913
         0.0267322759655
         0.0267986773461
         0.0268651633711
         0.0269317341398
         0.0269983897515
         0.0270651303053
         0.0271319559002
         0.0271988666348
         0.0272658626071
         0.0273329439147
         0.0274001106547
         0.0274673629233
         0.0275347008158
         0.0276021244267
         0.0276696338494
         0.0277372291762
         0.0278049104982
         0.0278726779051
         0.0279405314852
         0.0280084713252
         0.0280764975104
         0.028144610124
         0.0282128092478
         0.0282810949614
         0.0283494673423
         0.0284179264662
         0.0284864724063
         0.0285551052335
         0.0286238250165
         0.0286926318212
         0.028761525711
         0.0288305067467
         0.0288995749861
         0.0289687304842
         0.0290379732928
         0.0291073034609
         0.0291767210339
         0.0292462260543
         0.0293158185608
         0.0293854985889
         0.0294552661703
         0.029525121333
         0.0295950641013
         0.0296650944955
         0.0297352125319
         0.0298054182228
         0.029875711576
         0.0299460925954
         0.0300165612802
         0.0300871176252
         0.0301577616206
         0.0302284932519
         0.0302993124997
         0.0303702193398
         0.0304412137431
         0.0305122956752
         0.0305834650965
         0.0306547219624
         0.0307260662224
         0.0307974978211
         0.030869016697
         0.0309406227832
         0.0310123160068
         0.0310840962893
         0.0311559635459
         0.0312279176859
         0.0312999586123
         0.0313720862219
         0.0314443004051
         0.0315166010457
         0.031588988021
         0.0316614612018
         0.0317340204517
         0.0318066656278
         0.03187939658
         0.0319522131512
         0.0320251151771
         0.0320981024861
         0.0321711748992
         0.0322443322301
         0.0323175742847
         0.0323909008613
         0.0324643117504
         0.0325378067347
         0.0326113855889
         0.0326850480796
         0.0327587939652
         0.032832622996
         0.0329065349135
         0.0329805294513
         0.033054606334
         0.0331287652778
         0.0332030059899
         0.0332773281688
         0.033351731504
         0.0334262156759
         0.0335007803558
         0.0335754252057
         0.0336501498786
         0.0337249540189
         0.0337998372623
         0.0338747992362
         0.03394983956
         0.0340249578453
         0.0341001536961
         0.0341754267091
         0.0342507764737
         0.0343262025729
         0.0344017045827
         0.034477282073
         0.0345529346073
         0.0346286617434
         0.0347044630336
         0.0347803380245
         0.0348562862578
         0.0349323072701
         0.0350084005935
         0.0350845657557
         0.0351608022799
         0.0352371096858
         0.035313487489
         0.0353899352019
         0.0354664523336
         0.0355430383902
         0.0356196928751
         0.0356964152893
         0.0357732051314
         0.035850061898
         0.0359269850841
         0.036003974183
         0.0360810286867
         0.0361581480864
         0.0362353318723
         0.0363125795341
         0.0363898905611
         0.0364672644428
         0.0365447006685
         0.0366221987281
         0.0366997581123
         0.0367773783124
         0.0368550588211
         0.0369327991323
         0.0370105987416
         0.0370884571464
         0.0371663738464
         0.0372443483433
         0.0373223801418
         0.0374004687492
         0.0374786136757
         0.0375568144353
         0.0376350705451
         0.0377133815262
         0.0377917469037
         0.0378701662071
         0.0379486389702
         0.0380271647318
         0.0381057430355
         0.0381843734303
         0.0382630554707
         0.0383417887168
         0.0384205727348
         0.0384994070971
         0.0385782913825
         0.0386572251765
         0.0387362080717
         0.0388152396676
         0.0388943195714
         0.0389734473979
         0.0390526227697
         0.0391318453177
         0.0392111146811
         0.0392904305077
         0.0393697924544
         0.0394492001869
         0.0395286533806
         0.0396081517202
         0.0396876949005
         0.0397672826261
         0.0398469146123
         0.0399265905846
         0.0400063102796
         0.0400860734449
         0.0401658798393
         0.0402457292331
         0.0403256214085
         0.0404055561598
         0.0404855332934
         0.0405655526282
         0.0406456139961
         0.0407257172416
         0.0408058622228
         0.040886048811
         0.0409662768915
         0.0410465463632
         0.0411268571396
         0.0412072091483
         0.0412876023319
         0.0413680366475
         0.0414485120679
         0.0415290285808
         0.04160958619
         0.0416901849147
         0.04177082479
         0.0418515058664
         0.0419322282096
         0.0420129919003
         0.0420937970338
         0.0421746437203
         0.0422555320839
         0.0423364622631
         0.0424174344101
         0.0424984486906
         0.0425795052841
         0.0426606043828
         0.0427417461922
         0.0428229309303
         0.0429041588278
         0.0429854301275
         0.0430667450843
         0.043148103965
         0.0432295070477
         0.0433109546222
         0.0433924469893
         0.0434739844606
         0.0435555673586
         0.0436371960161
         0.0437188707761
         0.0438005919918
         0.0438823600258
         0.0439641752507
         0.0440460380482
         0.0441279488089
         0.0442099079327
         0.0442919158277
         0.0443739729108
         0.0444560796067
         0.0445382363485
         0.0446204435766
         0.0447027017392
         0.0447850112916
         0.0448673726964
         0.0449497864227
         0.0450322529465
         0.0451147727499
         0.0451973463213
         0.0452799741551
         0.0453626567512
         0.0454453946151
         0.0455281882575
         0.0456110381941
         0.0456939449454
         0.0457769090365
         0.0458599309967
         0.0459430113595
         0.0460261506624
         0.0461093494463
         0.0461926082556
         0.0462759276382
         0.0463593081445
         0.0464427503279
         0.0465262547444
         0.046609821952
         0.0466934525111
         0.0467771469837
         0.0468609059336
         0.0469447299257
         0.0470286195264
         0.0471125753028
         0.0471965978228
         0.0472806876547
         0.0473648453672
         0.0474490715288
         0.047533366708
         0.0476177314729
         0.0477021663906
         0.0477866720278
         0.0478712489497
         0.0479558977204
         0.0480406189024
         0.0481254130562
         0.0482102807406
         0.0482952225119
         0.0483802389242
         0.0484653305285
         0.0485504978734
         0.0486357415038
         0.0487210619617
         0.0488064597852
         0.0488919355087
         0.0489774896625
         0.0490631227727
         0.0491488353606
         0.0492346279432
         0.0493205010322
         0.0494064551343
         0.0494924907506
         0.0495786083768
         0.0496648085025
         0.0497510916113
         0.0498374581806
         0.049923908681
         0.0500104435765
         0.0500970633241
         0.0501837683734
         0.0502705591667
         0.0503574361387
         0.0504443997165
         0.0505314503197
         0.0506185883606
         0.0507058142441
         0.0507931283683
         0.0508805311239
         0.0509680228949
         0.0510556040584
         0.051143274985
