looks/curve2_0.spi1d
Version 1
From 0.0 1.0
Length  4096
Components 1
{
         -2.93883250733e-21
         1.79593671448e-05
         3.59525267127e-05
         5.39797694625e-05
         7.20413835165e-05
         9.0137654374e-05
         0.000108268864923
         0.000126435295456
         0.000144637223678
         0.000162874924726
         0.000181148671175
         0.000199458733059
         0.000217805377875
         0.000236188870603
         0.000254609473717
         0.000273067447195
         0.000291563048538
         0.000310096532778
         0.00032866815249
         0.000347278157812
         0.00036592679645
         0.000384614313696
         0.00040334095244
         0.000422106953181
         0.000440912554043
         0.000459757990785
         0.000478643496818
         0.000497569303211
         0.000516535638713
         0.00053554272976
         0.000554590800487
         0.000573680072748
         0.000592810766121
         0.000611983097925
         0.000631197283233
         0.000650453534885
         0.000669752063499
         0.000689093077486
         0.000708476783064
         0.000727903384266
         0.000747373082959
         0.000766886078854
         0.00078644256952
         0.000806042750393
         0.000825686814797
         0.00084537495395
         0.000865107356979
         0.000884884210934
         0.0009047057008
         0.000924572009511
         0.000944483317963
         0.000964439805023
         0.00098444164755
         0.0010044890204
         0.00102458209644
         0.00104472104657
         0.00106490603973
         0.0010851372429
         0.00110541482114
         0.00112573893758
         0.00114610975344
         0.00116652742805
         0.00118699211885
         0.00120750398142
         0.00122806316948
         0.0012486698349
         0.00126932412773
         0.00129002619618
         0.00131077618669
         0.00133157424388
         0.0013524205106
         0.00137331512793
         0.00139425823521
         0.00141524997004
         0.00143629046827
         0.00145737986405
         0.00147851828985
         0.00149970587641
         0.00152094275284
         0.00154222904655
         0.00156356488332
         0.00158495038729
         0.00160638568099
         0.00162787088532
         0.00164940611959
         0.00167099150154
         0.00169262714731
         0.00171431317151
         0.0017360496872
         0.00175783680589
         0.00177967463759
         0.0018015632908
         0.00182350287252
         0.00184549348827
         0.00186753524212
         0.00188962823667
         0.00191177257309
         0.0019339683511
         0.00195621566903
         0.00197851462379
         0.00200086531092
         0.00202326782457
         0.00204572225753
         0.00206822870124
         0.00209078724581
         0.00211339798001
         0.00213606099131
         0.00215877636588
         0.00218154418861
         0.00220436454312
         0.00222723751175
         0.00225016317562
         0.0022731416146
         0.00229617290734
         0.0023192571313
         0.00234239436273
         0.0023655846767
         0.00238882814712
         0.00241212484674
         0.00243547484717
         0.00245887821888
         0.00248233503124
         0.00250584535251
         0.00252940924986
         0.00255302678938
         0.0025766980361
         0.002600423054
         0.00262420190602
         0.00264803465407
         0.00267192135906
         0.00269586208088
         0.00271985687846
         0.00274390580973
         0.00276800893169
         0.00279216630037
         0.00281637797087
         0.00284064399737
         0.00286496443314
         0.00288933933058
         0.00291376874116
         0.00293825271551
         0.00296279130342
         0.00298738455379
         0.00301203251474
         0.00303673523354
         0.00306149275666
         0.0030863051298
         0.00311117239785
         0.00313609460495
         0.00316107179451
         0.00318610400916
         0.00321119129082
         0.00323633368072
         0.00326153121935
         0.00328678394655
         0.00331209190145
         0.00333745512255
         0.00336287364768
         0.00338834751405
         0.00341387675824
         0.00343946141622
         0.00346510152336
         0.00349079711446
         0.00351654822374
         0.00354235488486
         0.00356821713094
         0.00359413499458
         0.00362010850784
         0.00364613770228
         0.00367222260899
         0.00369836325855
         0.00372455968109
         0.00375081190628
         0.00377711996336
         0.00380348388113
         0.00382990368799
         0.00385637941192
         0.00388291108053
         0.00390949872104
         0.00393614236031
         0.00396284202487
         0.00398959774088
         0.00401640953421
         0.00404327743039
         0.00407020145468
         0.00409718163203
         0.00412421798714
         0.00415131054444
         0.00417845932811
         0.00420566436212
         0.00423292567018
         0.00426024327585
         0.00428761720244
         0.00431504747311
         0.00434253411085
         0.0043700771385
         0.00439767657873
         0.00442533245413
         0.00445304478712
         0.00448081360006
         0.00450863891521
         0.00453652075473
         0.00456445914074
         0.00459245409532
         0.00462050564048
         0.00464861379823
         0.00467677859055
         0.00470500003945
         0.00473327816692
         0.004761612995
         0.00479000454576
         0.00481845284134
         0.00484695790392
         0.00487551975578
         0.00490413841928
         0.0049328139169
         0.00496154627122
         0.00499033550497
         0.00501918164101
         0.00504808470237
         0.00507704471223
         0.00510606169397
         0.00513513567117
         0.0051642666676
         0.00519345470728
         0.00522269981444
         0.00525200201356
         0.00528136132941
         0.00531077778699
         0.00534025141163
         0.00536978222893
         0.00539937026482
         0.00542901554555
         0.0054587180977
         0.00548847794823
         0.00551829512443
         0.005548169654
         0.005578101565
         0.00560809088593
         0.00563813764568
         0.00566824187358
         0.0056984035994
         0.00572862285337
         0.00575889966618
         0.00578923406902
         0.00581962609356
         0.00585007577198
         0.00588058313699
         0.00591114822183
         0.00594177106028
         0.00597245168668
         0.00600319013596
         0.00603398644363
         0.00606484064577
         0.00609575277912
         0.00612672288101
         0.00615775098943
         0.00618883714299
         0.00621998138101
         0.00625118374344
         0.00628244427096
         0.00631376300492
         0.00634513998742
         0.00637657526125
         0.00640806886997
         0.0064396208579
         0.00647123127009
         0.00650290015242
         0.00653462755154
         0.00656641351489
         0.00659825809076
         0.00663016132826
         0.00666212327735
         0.00669414398884
         0.00672622351442
         0.00675836190666
         0.00679055921904
         0.00682281550594
         0.00685513082266
         0.00688750522544
         0.00691993877149
         0.00695243151895
         0.00698498352696
         0.00701759485564
         0.00705026556611
         0.00708299572052
         0.00711578538202
         0.00714863461482
         0.00718154348419
         0.00721451205646
         0.00724754039902
         0.00728062858039
         0.00731377667016
         0.00734698473907
         0.00738025285897
         0.00741358110286
         0.00744696954491
         0.00748041826045
         0.00751392732598
         0.00754749681923
         0.00758112681912
         0.00761481740579
         0.00764856866061
         0.00768238066623
         0.00771625350653
         0.00775018726668
         0.00778418203313
         0.00781823789364
         0.00785235493728
         0.00788653325444
         0.00792077293686
         0.00795507407762
         0.00798943677118
         0.00802386111338
         0.00805834720144
         0.00809289513398
         0.00812750501106
         0.00816217693415
         0.00819691100618
         0.00823170733152
         0.00826656601603
         0.00830148716702
         0.00833647089334
         0.00837151730532
         0.00840662651481
         0.0084417986352
         0.00847703378144
         0.00851233207003
         0.00854769361904
         0.00858311854813
         0.00861860697857
         0.00865415903322
         0.00868977483659
         0.0087254545148
         0.00876119819557
         0.00879700600817
         0.0088328780834
         0.00886881455352
         0.00890481555222
         0.00894088121456
         0.00897701167698
         0.0090132070772
         0.0090494675542
         0.0090857932482
         0.00912218430057
         0.00915864085384
         0.00919516305162
         0.00923175103859
         0.0092684049604
         0.00930512496372
         0.00934191119611
         0.00937876380603
         0.00941568294278
         0.00945266875645
         0.00948972139791
         0.00952684101872
         0.00956402777115
         0.00960128180807
         0.00963860328296
         0.00967599234984
         0.00971344916324
         0.00975097387817
         0.00978856665003
         0.00982622763464
         0.00986395698813
         0.00990175486695
         0.00993962142779
         0.00997755682756
         0.0100155612233
         0.0100536347724
         0.0100917776319
         0.0101299899593
         0.010168271912
         0.0102066236472
         0.0102450453221
         0.010283537094
         0.0103220991197
         0.010360731556
         0.0103994345594
         0.0104382082861
         0.010477052892
         0.0105159685326
         0.010554955363
         0.0105940135379
         0.0106331432113
         0.0106723445368
         0.0107116176676
         0.010750962756
         0.0107903799536
         0.0108298694116
         0.0108694312802
         0.0109090657089
         0.0109487728464
         0.0109885528403
         0.0110284058376
         0.0110683319842
         0.0111083314249
         0.0111484043037
         0.0111885507632
         0.0112287709451
         0.0112690649899
         0.0113094330368
         0.0113498752239
         0.0113903916879
         0.0114309825641
         0.0114716479866
         0.011512388088
         0.0115532029992
         0.0115940928501
         0.0116350577686
         0.0116760978812
         0.0117172133128
         0.0117584041866
         0.011799670624
         0.0118410127447
         0.0118824306668
         0.0119239245061
         0.011965494377
         0.0120071403917
         0.0120488626605
         0.0120906612918
         0.0121325363917
         0.0121744880645
         0.0122165164122
         0.0122586215346
         0.0123008035294
         0.012343062492
         0.0123853985154
         0.0124278116904
         0.0124703021054
         0.0125128698463
         0.0125555149966
         0.0125982376371
         0.0126410378464
         0.0126839157003
         0.0127268712719
         0.0127699046316
         0.0128130158474
         0.0128562049843
         0.0128994721044
         0.0129428172671
         0.0129862405289
         0.0130297419434
         0.0130733215613
         0.01311697943
         0.0131607155946
         0.0132045300968
         0.0132484229759
         0.0132923942681
         0.013336444007
         0.0133805722237
         0.0134247789462
         0.0134690642002
         0.0135134280088
         0.0135578703925
         0.0136023913692
         0.0136469909544
         0.0136916691613
         0.0137364260005
         0.0137812614804
         0.013826175607
         0.0138711683842
         0.0139162398133
         0.0139613898937
         0.0140066186227
         0.0140519259952
         0.0140973120042
         0.0141427766407
         0.0141883198935
         0.0142339417497
         0.0142796421942
         0.0143254212102
         0.014371278779
         0.0144172148801
         0.0144632294911
         0.0145093225881
         0.0145554941454
         0.0146017441355
         0.0146480725295
         0.0146944792969
         0.0147409644054
         0.0147875278215
         0.0148341695102
         0.0148808894349
         0.0149276875577
         0.0149745638395
         0.0150215182397
         0.0150685507164
         0.0151156612267
         0.0151628497263
         0.0152101161699
         0.0152574605109
         0.0153048827017
         0.0153523826939
         0.0153999604377
         0.0154476158826
         0.015495348977
         0.0155431596688
         0.0155910479045
         0.0156390136302
         0.0156870567912
         0.0157351773318
         0.0157833751959
         0.0158316503267
         0.0158800026666
         0.0159284321576
         0.0159769387412
         0.0160255223582
         0.0160741829492
         0.0161229204542
         0.0161717348128
         0.0162206259645
         0.0162695938481
         0.0163186384025
         0.0163677595663
         0.0164169572777
         0.016466231475
         0.0165155820962
         0.0165650090794
         0.0166145123626
         0.0166640918838
         0.0167137475809
         0.0167634793922
         0.0168132872558
         0.0168631711103
         0.0169131308941
         0.0169631665461
         0.0170132780055
         0.0170634652117
         0.0171137281044
         0.0171640666239
         0.0172144807108
         0.0172649703062
         0.0173155353516
         0.0173661757892
         0.0174168915618
         0.0174676826126
         0.0175185488857
         0.0175694903258
         0.0176205068784
         0.0176715984898
         0.0177227651069
         0.0177740066777
         0.0178253231509
         0.0178767144765
         0.0179281806049
         0.0179797214881
         0.0180313370787
         0.0180830273307
         0.0181347921989
         0.0181866316397
         0.0182385456103
         0.0182905340693
         0.0183425969767
         0.0183947342935
         0.0184469459823
         0.0184992320068
         0.0185515923319
         0.0186040269239
         0.0186565357503
         0.0187091187801
         0.0187617759832
         0.0188145073311
         0.0188673127963
         0.0189201923528
         0.0189731459758
         0.0190261736416
         0.0190792753281
         0.0191324510141
         0.0191857006799
         0.019239024307
         0.0192924218781
         0.0193458933773
         0.0193994387898
         0.0194530581022
         0.0195067513022
         0.0195605183789
         0.0196143593226
         0.0196682741248
         0.0197222627784
         0.0197763252773
         0.0198304616169
         0.0198846717937
         0.0199389558055
         0.0199933136514
         0.0200477453317
         0.0201022508478
         0.0201568302025
         0.0202114833999
         0.0202662104452
         0.0203210113449
         0.0203758861067
         0.0204308347396
         0.0204858572537
         0.0205409536606
         0.0205961239728
         0.0206513682043
         0.0207066863702
         0.0207620784869
         0.0208175445718
         0.0208730846439
         0.0209286987232
         0.020984386831
         0.0210401489896
         0.0210959852229
         0.0211518955558
         0.0212078800144
         0.021263938626
         0.0213200714193
         0.0213762784241
         0.0214325596713
         0.0214889151933
         0.0215453450234
         0.0216018491963
         0.0216584277478
         0.0217150807151
         0.0217718081365
         0.0218286100513
         0.0218854865004
         0.0219424375255
         0.0219994631699
         0.0220565634778
         0.0221137384947
         0.0221709882674
         0.0222283128437
         0.0222857122727
         0.0223431866048
         0.0224007358914
         0.0224583601852
         0.0225160595401
         0.0225738340113
         0.0226316836548
         0.0226896085283
         0.0227476086903
         0.0228056842007
         0.0228638351205
         0.0229220615119
         0.0229803634382
         0.0230387409641
         0.0230971941553
         0.0231557230787
         0.0232143278024
         0.0232730083957
         0.0233317649291
         0.0233905974742
         0.0234495061039
         0.023508490892
         0.0235675519137
         0.0236266892455
         0.0236859029647
         0.0237451931501
         0.0238045598814
         0.0238640032397
         0.0239235233072
         0.0239831201671
         0.0240427939039
         0.0241025446033
         0.0241623723522
         0.0242222772384
         0.0242822593512
         0.0243423187807
         0.0244024556184
         0.024462669957
         0.0245229618901
         0.0245833315127
         0.0246437789206
         0.0247043042108
         0.024764907481
         0.0248255888296
         0.0248863483558
         0.0249471861593
         0.0250081023402
         0.025069096999
         0.0251301702364
         0.0251913221534
         0.0252525528509
         0.0253138624297
         0.0253752509906
         0.0254367186342
         0.0254982654606
         0.0255598915694
         0.0256215970599
         0.0256833820306
         0.0257452465791
         0.0258071908024
         0.0258692147966
         0.0259313186564
         0.0259935024757
         0.0260557663469
         0.0261181103613
         0.0261805346085
         0.0262430391768
         0.0263056241526
         0.0263682896208
         0.0264310356642
         0.0264938623639
         0.0265567697987
         0.0266197580455
         0.0266828271788
         0.0267459772707
         0.026809208391
         0.0268725206069
         0.026935913983
         0.0269993885809
         0.0270629444597
         0.0271265816754
         0.0271903002808
         0.0272541003258
         0.027317981857
         0.0273819449175
         0.0274459895471
         0.0275101157819
         0.0275743236546
         0.0276386131939
         0.0277029844248
         0.0277674373683
         0.0278319720414
         0.0278965884568
         0.0279612866231
         0.0280260665446
         0.0280909282209
         0.0281558716473
         0.0282208968145
         0.028286003708
         0.0283511923091
         0.0284164625936
         0.0284818145325
         0.0285472480916
         0.0286127632316
         0.0286783599076
         0.0287440380694
         0.0288097976613
         0.0288756386218
         0.0289415608837
         0.029007564374
         0.0290736490137
         0.0291398147178
         0.0292060613952
         0.0292723889484
         0.0293387972736
         0.0294052862607
         0.0294718557928
         0.0295385057465
         0.0296052359918
         0.0296720463915
         0.0297389368017
         0.0298059070713
         0.0298729570423
         0.0299400865492
         0.0300072954192
         0.0300745834721
         0.0301419505202
         0.0302093963681
         0.0302769208126
         0.0303445236426
         0.0304122046393
         0.0304799635756
         0.0305478002163
         0.0306157143182
         0.0306837056293
         0.0307517738895
         0.03081991883
         0.0308881401735
         0.0309564376338
         0.0310248109158
         0.0310932597157
         0.0311617837204
         0.0312303826077
         0.0312990560463
         0.0313678036955
         0.0314366252049
         0.0315055202149
         0.0315744883561
         0.0316435292493
         0.0317126425056
         0.0317818277264
         0.031851084504
         0.0319204124212
         0.0319898110522
         0.0320592799624
         0.032128818709
         0.0321984268407
         0.0322681038987
         0.0323378494161
         0.0324076629189
         0.0324775439258
         0.0325474919486
         0.0326175064921
         0.0326875870551
         0.0327577331298
         0.0328279442027
         0.0328982197542
         0.0329685592596
         0.0330389621887
         0.0331094280063
         0.0331799561725
         0.0332505461429
         0.0333211973686
         0.0333919092968
         0.0334626813711
         0.033533513031
         0.0336044037133
         0.0336753528512
         0.0337463598753
         0.0338174242136
         0.0338885452917
         0.0339597225331
         0.0340309553594
         0.0341022431906
         0.0341735854452
         0.0342449815408
         0.0343164308939
         0.0343879329203
         0.0344594870354
         0.0345310926546
         0.0346027491931
         0.0346744560666
         0.0347462126912
         0.0348180184838
         0.0348898728625
         0.0349617752464
         0.0350337250563
         0.0351057217147
         0.0351777646461
         0.0352498532772
         0.0353219870371
         0.0353941653578
         0.0354663876742
         0.0355386534243
         0.0356109620496
         0.0356833129953
         0.0357557057105
         0.0358281396486
         0.0359006142671
         0.0359731290285
         0.0360456834
         0.0361182768539
         0.0361909088679
         0.0362635789255
         0.0363362865159
         0.0364090311342
         0.0364818122823
         0.0365546294683
         0.0366274822074
         0.0367003700215
         0.0367732924403
         0.0368462490006
         0.0369192392472
         0.036992262733
         0.037065319019
         0.0371384076749
         0.0372115282789
         0.0372846804185
         0.0373578636902
         0.0374310777002
         0.0375043220642
         0.0375775964081
         0.0376509003677
         0.0377242335896
         0.0377975957309
         0.0378709864595
         0.0379444054548
         0.0380178524074
         0.0380913270196
         0.0381648290056
         0.0382383580918
         0.0383119140168
         0.038385496532
         0.0384591054017
         0.0385327404032
         0.0386064013271
         0.0386800879778
         0.0387538001733
         0.0388275377457
         0.0389013005417
         0.0389750884222
         0.0390489012631
         0.0391227389552
         0.0391966014049
         0.0392704885336
         0.039344400279
         0.0394183365944
         0.0394922974497
         0.0395662828309
         0.039640292741
         0.0397143271992
         0.0397883862413
         0.0398624699189
         0.0399365782994
         0.0400107114662
         0.0400848695177
         0.0401590525676
         0.0402332607446
         0.0403074941922
         0.0403817530683
         0.0404560375449
         0.0405303478085
         0.0406046840591
         0.0406790465104
         0.0407534353895
         0.0408278509367
         0.0409022934052
         0.040976763061
         0.0410512601826
         0.0411257850606
         0.0412003379979
         0.0412749193091
         0.0413495293204
         0.0414241683696
         0.0414988368053
         0.0415735349873
         0.0416482632862
         0.0417230220829
         0.0417978117686
         0.0418726327446
         0.0419474854221
         0.0420223702219
         0.042097287574
         0.0421722379177
         0.0422472217014
         0.0423222393819
         0.0423972914247
         0.0424723783036
         0.0425475005003
         0.0426226585045
         0.0426978528134
         0.0427730839315
         0.0428483523706
         0.0429236586495
         0.0429990032936
         0.0430743868347
         0.0431498098111
         0.043225272767
         0.0433007762524
         0.0433763208231
         0.04345190704
         0.0435275354693
         0.0436032066823
         0.0436789212547
         0.0437546797669
         0.0438304828034
         0.0439063309531
         0.0439822248082
         0.0440581649649
