looks/curve2_5.spi1d
Version 1
From 0.0 1.0
Length  4096
Components 1
{
         -3.79998502854e-20
         1.32845459472e-05
         2.65951365296e-05
         3.99320304848e-05
         5.32954843892e-05
         6.66857526679e-05
         8.01030876051e-05
         9.35477393532e-05
         0.000107019955943
         0.000120519983294
         0.000134048065222
         0.000147604443454
         0.000161189357632
         0.000174803045326
         0.000188445742045
         0.000202117681243
         0.000215819094333
         0.000229550210694
         0.000243311257682
         0.000257102460641
         0.000270924042909
         0.000284776225833
         0.000298659228774
         0.00031257326912
         0.000326518562296
         0.000340495321771
         0.00035450375907
         0.000368544083784
         0.000382616503579
         0.000396721224206
         0.000410858449511
         0.000425028381446
         0.000439231220076
         0.000453467163591
         0.000467736408316
         0.000482039148719
         0.000496375577423
         0.000510745885216
         0.000525150261056
         0.000539588892089
         0.000554061963652
         0.000568569659285
         0.000583112160743
         0.000597689648002
         0.000612302299272
         0.000626950291005
         0.000641633797906
         0.000656352992943
         0.000671108047355
         0.000685899130663
         0.00070072641068
         0.000715590053522
         0.000730490223616
         0.000745427083709
         0.00076040079488
         0.000775411516551
         0.000790459406493
         0.000805544620838
         0.000820667314089
         0.000835827639129
         0.000851025747232
         0.000866261788073
         0.000881535909734
         0.000896848258721
         0.000912198979966
         0.000927588216844
         0.000943016111175
         0.000958482803244
         0.000973988431799
         0.000989533134073
         0.00100511704578
         0.00102074030114
         0.00103640303289
         0.00105210537225
         0.00106784744902
         0.00108362939149
         0.00109945132652
         0.00111531337953
         0.00113121567451
         0.00114715833402
         0.0011631414792
         0.0011791652298
         0.00119522970417
         0.00121133501929
         0.00122748129073
         0.00124366863275
         0.00125989715822
         0.00127616697867
         0.0012924782043
         0.001308830944
         0.00132522530531
         0.00134166139451
         0.00135813931655
         0.00137465917511
         0.0013912210726
         0.00140782511016
         0.00142447138766
         0.00144116000375
         0.00145789105583
         0.00147466464008
         0.00149148085145
         0.00150833978371
         0.0015252415294
         0.00154218617991
         0.00155917382544
         0.001576204555
         0.00159327845647
         0.00161039561658
         0.00162755612092
         0.00164476005395
         0.00166200749901
         0.00167929853835
         0.00169663325309
         0.00171401172329
         0.00173143402793
         0.0017489002449
         0.00176641045106
         0.00178396472221
         0.0018015631331
         0.00181920575746
         0.00183689266802
         0.00185462393646
         0.00187239963349
         0.00189021982884
         0.00190808459122
         0.00192599398842
         0.00194394808723
         0.0019619469535
         0.00197999065216
         0.00199807924719
         0.00201621280166
         0.00203439137771
         0.0020526150366
         0.00207088383869
         0.00208919784347
         0.00210755710953
         0.00212596169464
         0.00214441165569
         0.00216290704873
         0.00218144792899
         0.00220003435087
         0.00221866636795
         0.00223734403303
         0.00225606739809
         0.00227483651435
         0.00229365143226
         0.00231251220147
         0.00233141887093
         0.0023503714888
         0.00236937010254
         0.00238841475886
         0.00240750550378
         0.0024266423826
         0.00244582543993
         0.0024650547197
         0.00248433026516
         0.0025036521189
         0.00252302032285
         0.0025424349183
         0.00256189594591
         0.00258140344571
         0.0026009574571
         0.0026205580189
         0.00264020516931
         0.00265989894598
         0.00267963938593
         0.00269942652567
         0.00271926040112
         0.00273914104766
         0.00275906850014
         0.00277904279287
         0.00279906395967
         0.00281913203382
         0.00283924704812
         0.00285940903489
         0.00287961802596
         0.00289987405269
         0.002920177146
         0.00294052733634
         0.00296092465373
         0.00298136912778
         0.00300186078765
         0.00302239966212
         0.00304298577955
         0.00306361916793
         0.00308429985485
         0.00310502786754
         0.00312580323289
         0.00314662597741
         0.00316749612728
         0.00318841370837
         0.0032093787462
         0.003230391266
         0.00325145129269
         0.00327255885091
         0.003293713965
         0.00331491665906
         0.00333616695691
         0.0033574648821
         0.00337881045798
         0.00340020370765
         0.00342164465397
         0.00344313331961
         0.00346466972705
         0.00348625389854
         0.00350788585618
         0.00352956562189
         0.00355129321742
         0.00357306866437
         0.00359489198421
         0.00361676319825
         0.00363868232772
         0.00366064939368
         0.00368266441714
         0.00370472741899
         0.00372683842004
         0.00374899744102
         0.00377120450261
         0.00379345962543
         0.00381576283005
         0.00383811413701
         0.00386051356683
         0.00388296114001
         0.00390545687704
         0.00392800079843
         0.00395059292469
         0.00397323327637
         0.00399592187404
         0.00401865873832
         0.00404144388988
         0.00406427734947
         0.00408715913788
         0.00411008927603
         0.0041330677849
         0.00415609468558
         0.00417916999928
         0.00420229374734
         0.0042254659512
         0.00424868663248
         0.00427195581293
         0.00429527351448
         0.00431863975922
         0.00434205456942
         0.00436551796756
         0.0043890299763
         0.00441259061852
         0.00443619991732
         0.00445985789605
         0.00448356457827
         0.00450731998781
         0.00453112414876
         0.00455497708548
         0.0045788788226
         0.00460282938507
         0.0046268287981
         0.00465087708723
         0.00467497427834
         0.0046991203976
         0.00472331547156
         0.00474755952708
         0.00477185259141
         0.00479619469216
         0.00482058585731
         0.00484502611524
         0.00486951549473
         0.00489405402496
         0.00491864173553
         0.00494327865647
         0.00496796481827
         0.00499270025182
         0.00501748498851
         0.00504231906018
         0.00506720249915
         0.00509213533823
         0.00511711761073
         0.00514214935045
         0.00516723059173
         0.00519236136942
         0.00521754171892
         0.00524277167617
         0.00526805127765
         0.00529338056045
         0.00531875956218
         0.00534418832108
         0.00536966687598
         0.00539519526628
         0.00542077353203
         0.00544640171391
         0.00547207985321
         0.00549780799188
         0.00552358617251
         0.00554941443839
         0.00557529283343
         0.00560122140228
         0.00562720019025
         0.00565322924336
         0.00567930860835
         0.00570543833268
         0.00573161846455
         0.00575784905289
         0.00578413014739
         0.00581046179851
         0.00583684405748
         0.0058632769763
         0.00588976060778
         0.00591629500553
         0.00594288022395
         0.00596951631829
         0.00599620334463
         0.00602294135987
         0.00604973042178
         0.00607657058899
         0.006103461921
         0.00613040447819
         0.00615739832182
         0.00618444351407
         0.00621154011802
         0.00623868819767
         0.00626588781797
         0.00629313904478
         0.00632044194492
         0.00634779658619
         0.00637520303733
         0.00640266136808
         0.00643017164916
         0.0064577339523
         0.00648534835023
         0.0065130149167
         0.00654073372648
         0.00656850485541
         0.00659632838034
         0.00662420437921
         0.006652132931
         0.00668011411579
         0.00670814801475
         0.00673623471012
         0.00676437428528
         0.00679256682471
         0.00682081241403
         0.00684911113997
         0.00687746309044
         0.00690586835449
         0.00693432702233
         0.00696283918537
         0.00699140493619
         0.00702002436857
         0.00704869757748
         0.00707742465914
         0.00710620571096
         0.00713504083162
         0.00716393012102
         0.00719287368033
         0.00722187161196
         0.00725092401964
         0.00728003100834
         0.00730919268435
         0.00733840915526
         0.00736768052997
         0.00739700691871
         0.00742638843303
         0.00745582518578
         0.0074853172911
         0.00751486486434
         0.00754446802208
         0.00757412688207
         0.00760384156323
         0.00763361218555
         0.00766343887015
         0.00769332173917
         0.00772326091579
         0.00775325652418
         0.00778330868946
         0.00781341753768
         0.0078435831958
         0.00787380579163
         0.00790408545382
         0.00793442231183
         0.00796481649588
         0.00799526813694
         0.00802577736668
         0.00805634431746
         0.00808696912228
         0.00811765191476
         0.0081483928291
         0.00817919200006
         0.00821004956291
         0.00824096565342
         0.00827194040782
         0.00830297396277
         0.00833406645533
         0.0083652180229
         0.00839642880325
         0.00842769893444
         0.00845902855479
         0.00849041780288
         0.0085218668175
         0.00855337573759
         0.00858494470227
         0.00861657385077
         0.00864826332239
         0.00868001325649
         0.00871182379246
         0.00874369506968
         0.00877562722748
         0.00880762040513
         0.0088396747418
         0.0088717903765
         0.00890396744811
         0.0089362060953
         0.0089685064565
         0.0090008686699
         0.00903329287338
         0.00906577920453
         0.00909832780056
         0.00913093879831
         0.00916361233419
         0.00919634854419
         0.00922914756379
         0.009262009528
         0.00929493457126
         0.00932792282744
         0.00936097442984
         0.00939408951108
         0.00942726820315
         0.00946051063733
         0.00949381694418
         0.00952718725349
         0.00956062169428
         0.00959412039472
         0.00962768348217
         0.00966131108306
         0.00969500332294
         0.0097287603264
         0.00976258221706
         0.00979646911752
         0.00983042114935
         0.00986443843304
         0.009898521088
         0.00993266923249
         0.0099668829836
         0.0100011624572
         0.0100355077681
         0.0100699190295
         0.0101043963538
         0.0101389398515
         0.0101735496323
         0.0102082258042
         0.0102429684739
         0.0102777777465
         0.0103126537258
         0.010347596514
         0.0103826062119
         0.0104176829185
         0.0104528267313
         0.0104880377464
         0.0105233160578
         0.0105586617581
         0.0105940749381
         0.0106295556869
         0.0106651040916
         0.0107007202378
         0.0107364042091
         0.010772156087
         0.0108079759515
         0.0108438638803
         0.0108798199493
         0.0109158442324
         0.0109519368014
         0.0109880977261
         0.011024327074
         0.0110606249107
         0.0110969912996
         0.0111334263019
         0.0111699299763
         0.0112065023797
         0.0112431435665
         0.0112798535885
         0.0113166324957
         0.0113534803353
         0.0113903971523
         0.0114273829892
         0.0114644378861
         0.0115015618811
         0.0115387550096
         0.0115760173049
         0.0116133487982
         0.0116507495183
         0.0116882194918
         0.0117257587433
         0.0117633672953
         0.011801045168
         0.0118387923797
         0.0118766089467
         0.0119144948832
         0.0119524502013
         0.0119904749116
         0.0120285690223
         0.0120667325399
         0.0121049654692
         0.0121432678129
         0.0121816395721
         0.0122200807461
         0.0122585913324
         0.0122971713268
         0.0123358207235
         0.012374539515
         0.0124133276921
         0.0124521852442
         0.0124911121589
         0.0125301084224
         0.0125691740195
         0.0126083089334
         0.0126475131458
         0.0126867866371
         0.0127261293862
         0.0127655413708
         0.0128050225672
         0.0128445729503
         0.0128841924939
         0.0129238811705
         0.0129636389514
         0.0130034658066
         0.0130433617051
         0.0130833266147
         0.0131233605022
         0.0131634633332
         0.0132036350725
         0.0132438756835
         0.0132841851291
         0.0133245633709
         0.0133650103697
         0.0134055260854
         0.0134461104771
         0.0134867635031
         0.0135274851208
         0.0135682752868
         0.0136091339571
         0.013650061087
         0.0136910566309
         0.0137321205427
         0.0137732527758
         0.0138144532827
         0.0138557220157
         0.0138970589263
         0.0139384639656
         0.0139799370842
         0.0140214782323
         0.0140630873595
         0.0141047644153
         0.0141465093487
         0.0141883221084
         0.0142302026426
         0.0142721508996
         0.0143141668272
         0.014356250373
         0.0143984014846
         0.0144406201093
         0.0144829061942
         0.0145252596865
         0.0145676805333
         0.0146101686816
         0.0146527240783
         0.0146953466705
         0.0147380364053
         0.0147807932299
         0.0148236170916
         0.0148665079378
         0.0149094657162
         0.0149524903744
         0.0149955818606
         0.0150387401231
         0.0150819651104
         0.0151252567714
         0.0151686150555
         0.0152120399122
         0.0152555312916
         0.0152990891442
         0.0153427134208
         0.015386404073
         0.0154301610527
         0.0154739843124
         0.0155178738052
         0.0155618294848
         0.0156058513057
         0.0156499392227
         0.0156940931917
         0.015738313169
         0.015782599112
         0.0158269509786
         0.0158713687276
         0.0159158523188
         0.0159604017126
         0.0160050168705
         0.016049697755
         0.0160944443293
         0.0161392565579
         0.016184134406
         0.0162290778402
         0.0162740868279
         0.0163191613377
         0.0163643013394
         0.0164095068035
         0.016454777702
         0.0165001140078
         0.0165455156949
         0.0165909827382
         0.0166365151139
         0.0166821127992
         0.0167277757724
         0.0167735040128
         0.0168192975009
         0.0168651562179
         0.0169110801466
         0.0169570692705
         0.0170031235742
         0.0170492430435
         0.0170954276652
         0.017141677427
         0.0171879923179
         0.0172343723279
         0.0172808174479
         0.01732732767
         0.0173739029872
         0.0174205433939
         0.0174672488852
         0.0175140194572
         0.0175608551075
         0.0176077558342
         0.0176547216368
         0.0177017525158
         0.0177488484726
         0.0177960095097
         0.0178432356307
         0.0178905268402
         0.0179378831439
         0.0179853045484
         0.0180327910614
         0.0180803426916
         0.0181279594489
         0.018175641344
         0.0182233883887
         0.018271200596
         0.0183190779797
         0.0183670205547
         0.0184150283369
         0.0184631013433
         0.0185112395919
         0.0185594431017
         0.0186077118927
         0.0186560459859
         0.0187044454034
         0.0187529101682
         0.0188014403045
         0.0188500358373
         0.0188986967927
         0.0189474231978
         0.0189962150808
         0.0190450724708
         0.0190939953979
         0.0191429838933
         0.019192037989
         0.0192411577183
         0.0192903431153
         0.0193395942151
         0.019388911054
         0.0194382936689
         0.0194877420981
         0.0195372563807
         0.0195868365568
         0.0196364826676
         0.019686194755
         0.0197359728624
         0.0197858170336
         0.0198357273139
         0.0198857037492
         0.0199357463865
         0.019985855274
         0.0200360304607
         0.0200862719964
         0.0201365799322
         0.0201869543201
         0.0202373952128
         0.0202879026644
         0.0203384767297
         0.0203891174646
         0.0204398249258
         0.0204905991712
         0.0205414402594
         0.0205923482503
         0.0206433232044
         0.0206943651835
         0.0207454742502
         0.020796650468
         0.0208478939015
         0.0208992046162
         0.0209505826786
         0.0210020281559
         0.0210535411167
         0.0211051216303
         0.0211567697669
         0.0212084855977
         0.021260269195
         0.0213121206318
         0.0213640399823
         0.0214160273215
         0.0214680827254
         0.0215202062708
         0.0215723980356
         0.0216246580987
         0.0216769865398
         0.0217293834395
         0.0217818488795
         0.0218343829423
         0.0218869857115
         0.0219396572714
         0.0219923977075
         0.0220452071059
         0.022098085554
         0.0221510331397
         0.022204049952
         0.0222571360802
         0.0223102916145
         0.0223635166454
         0.0224168112641
         0.022470175562
         0.0225236096306
         0.022577113562
         0.0226306874479
         0.0226843313805
         0.0227380454515
         0.0227918297529
         0.0228456843761
         0.0228996094124
         0.0229536049526
         0.0230076710871
         0.0230618079057
         0.0231160154975
         0.0231702939511
         0.0232246433541
         0.0232790637931
         0.0233335553541
         0.0233881181216
         0.0234427521794
         0.0234974576098
         0.0235522344938
         0.0236070829111
         0.02366200294
         0.0237169946571
         0.0237720581375
         0.0238271934544
         0.0238824006794
         0.0239376798822
         0.0239930311303
         0.0240484544894
         0.0241039500231
         0.0241595177926
         0.024215157857
         0.0242708702727
         0.024326655094
         0.0243825123726
         0.0244384421573
         0.0244944444945
         0.0245505194276
         0.0246066669973
         0.0246628872413
         0.0247191801942
         0.0247755458874
         0.0248319843492
         0.0248884956048
         0.0249450796757
         0.0250017365801
         0.0250584663326
         0.0251152689444
         0.0251721444227
         0.0252290927711
         0.0252861139893
         0.0253432080731
         0.0254003750141
         0.0254576147999
         0.025514927414
         0.0255723128355
         0.0256297710391
         0.0256873019951
         0.0257449056694
         0.0258025820231
         0.0258603310128
         0.02591815259
         0.0259760467018
         0.02603401329
         0.0260920522914
         0.0261501636379
         0.0262083472561
         0.0262666030674
         0.0263249309876
         0.0263833309273
         0.0264418027915
         0.0265003464798
         0.0265589618857
         0.0266176488972
         0.0266764073966
         0.0267352372598
         0.0267941383572
         0.0268531105528
         0.0269121537045
         0.0269712676639
         0.0270304522762
         0.0270897073804
         0.0271490328088
         0.0272084283871
         0.0272678939344
         0.027327429263
         0.0273870341783
         0.0274467084789
         0.0275064519564
         0.0275662643952
         0.0276261455726
         0.0276860952585
         0.0277461132157
         0.0278061991993
         0.0278663529573
         0.0279265742297
         0.027986862749
         0.02804721824
         0.0281076404196
         0.0281681289967
         0.0282286836725
         0.0282893041397
         0.0283499900832
         0.0284107411794
         0.0284715570966
         0.0285324374944
         0.0285933820241
         0.0286543903285
         0.0287154620415
         0.0287765967884
         0.0288377941856
         0.0288990538408
         0.0289603753525
         0.0290217583105
         0.0290832022962
         0.0291447068824
         0.0292062716338
         0.0292678961071
         0.0293295798514
         0.0293913224082
         0.0294531233114
         0.0295149820882
         0.0295768982586
         0.0296388713358
         0.0297009008267
         0.0297629862317
         0.0298251270454
         0.029887322756
         0.0299495728466
         0.0300118767942
         0.0300742340711
         0.0301366441441
         0.0301991064754
         0.0302616205223
         0.0303241857379
         0.0303868015709
         0.0304494674659
         0.0305121828639
         0.0305749472019
         0.0306377599139
         0.0307006204304
         0.0307635281789
         0.0308264825843
         0.0308894830687
         0.0309525290518
         0.0310156199513
         0.0310787551827
         0.0311419341599
         0.0312051562952
         0.0312684209993
         0.0313317276822
         0.0313950757526
         0.0314584646185
         0.0315218936875
         0.0315853623667
         0.0316488700633
         0.0317124161843
         0.0317760001372
         0.0318396213299
         0.0319032791711
         0.0319669730703
         0.0320307024381
         0.0320944666866
         0.0321582652292
         0.0322220974811
         0.0322859628596
         0.0323498607839
         0.0324137906757
         0.0324777519592
         0.0325417440614
         0.0326057664123
         0.032669818445
         0.032733899596
         0.0327980093054
         0.0328621470171
         0.0329263121789
         0.0329905042431
         0.0330547226661
         0.033118966909
         0.0331832364379
         0.0332475307237
         0.0333118492426
         0.0333761914763
         0.0334405569122
         0.0335049450434
         0.0335693553691
         0.033633787395
         0.033698240633
         0.0337627146017
         0.0338272088267
         0.0338917228407
         0.0339562561836
         0.034020808403
         0.0340853790539
         0.0341499676994
         0.0342145739109
         0.0342791972678
         0.0343438373583
         0.0344084937791
         0.0344731661361
         0.0345378540442
         0.0346025571277
         0.0346672750205
         0.0347320073662
         0.0347967538184
         0.0348615140411
         0.0349262877083
         0.034991074505
         0.0350558741267
         0.03512068628
         0.0351855106829
         0.0352503470646
         0.035315195166
         0.0353800547398
         0.0354449255508
         0.0355098073762
         0.0355747000053
