looks/curve3_0.spi1d
Version 1
From 0.0 1.0
Length  4096
Components 1
{
         1.7425345711e-20
         1.14543322914e-05
         2.2931854138e-05
         3.44327606364e-05
         4.5957245385e-05
         5.75055004903e-05
         6.9077716574e-05
         8.06740827786e-05
         9.22947867746e-05
         0.000103940014767
         0.0001156099515
         0.000127304780267
         0.000139024682913
         0.000150769839845
         0.000162540430035
         0.000174336631029
         0.000186158618951
         0.000198006568513
         0.000209880653018
         0.000221781044368
         0.000233707913071
         0.000245661428246
         0.00025764175763
         0.000269649067587
         0.000281683523109
         0.000293745287828
         0.000305834524019
         0.000317951392609
         0.00033009605318
         0.000342268663979
         0.000354469381923
         0.000366698362605
         0.000378955760302
         0.000391241727978
         0.000403556417295
         0.000415899978617
         0.000428272561018
         0.000440674312284
         0.000453105378925
         0.00046556590618
         0.000478056038022
         0.000490575917164
         0.000503125685067
         0.000515705481948
         0.000528315446783
         0.000540955717314
         0.00055362643006
         0.000566327720316
         0.000579059722166
         0.000591822568487
         0.000604616390953
         0.000617441320046
         0.00063029748506
         0.000643185014108
         0.000656104034128
         0.000669054670889
         0.000682037048998
         0.00069505129191
         0.000708097521926
         0.000721175860209
         0.000734286426784
         0.000747429340546
         0.00076060471927
         0.00077381267961
         0.000787053337114
         0.000800326806224
         0.000813633200286
         0.000826972631555
         0.000840345211202
         0.00085375104932
         0.000867190254931
         0.000880662935993
         0.000894169199404
         0.000907709151011
         0.000921282895616
         0.000934890536982
         0.00094853217784
         0.000962207919893
         0.000975917863827
         0.000989662109314
         0.00100344075502
         0.00101725389861
         0.00103110163675
         0.00104498406514
         0.00105890127847
         0.00107285337047
         0.00108684043391
         0.00110086256058
         0.00111491984134
         0.00112901236607
         0.00114314022375
         0.00115730350238
         0.00117150228905
         0.00118573666995
         0.00120000673031
         0.00121431255449
         0.00122865422592
         0.00124303182715
         0.00125744543983
         0.00127189514473
         0.00128638102175
         0.0013009031499
         0.00131546160735
         0.0013300564714
         0.00134468781849
         0.00135935572422
         0.00137406026337
         0.00138880150987
         0.00140357953683
         0.00141839441653
         0.00143324622046
         0.00144813501928
         0.00146306088287
         0.0014780238803
         0.00149302407987
         0.00150806154908
         0.00152313635468
         0.00153824856264
         0.00155339823816
         0.00156858544571
         0.00158381024898
         0.00159907271095
         0.00161437289386
         0.00162971085919
         0.00164508666774
         0.00166050037956
         0.00167595205403
         0.00169144174978
         0.00170696952479
         0.00172253543631
         0.00173813954094
         0.00175378189458
         0.00176946255247
         0.00178518156919
         0.00180093899866
         0.00181673489414
         0.00183256930825
         0.00184844229299
         0.0018643538997
         0.00188030417911
         0.00189629318134
         0.00191232095588
         0.00192838755163
         0.00194449301687
         0.00196063739932
         0.00197682074608
         0.0019930431037
         0.00200930451813
         0.00202560503477
         0.00204194469845
         0.00205832355347
         0.00207474164354
         0.00209119901188
         0.00210769570112
         0.00212423175342
         0.00214080721038
         0.00215742211308
         0.00217407650213
         0.00219077041761
         0.00220750389909
         0.0022242769857
         0.00224108971603
         0.00225794212824
         0.00227483426
         0.00229176614851
         0.00230873783053
         0.00232574934236
         0.00234280071985
         0.00235989199844
         0.0023770232131
         0.0023941943984
         0.0024114055885
         0.00242865681712
         0.0024459481176
         0.00246327952288
         0.00248065106548
         0.00249806277757
         0.00251551469093
         0.00253300683695
         0.00255053924668
         0.00256811195079
         0.00258572497961
         0.00260337836311
         0.00262107213093
         0.00263880631238
         0.00265658093643
         0.00267439603174
         0.00269225162665
         0.00271014774918
         0.00272808442709
         0.00274606168779
         0.00276407955843
         0.0027821380659
         0.00280023723676
         0.00281837709736
         0.00283655767373
         0.0028547789917
         0.0028730410768
         0.00289134395435
         0.00290968764943
         0.00292807218687
         0.00294649759129
         0.0029649638871
         0.00298347109849
         0.00300201924943
         0.00302060836373
         0.00303923846497
         0.00305790957656
         0.00307662172175
         0.00309537492359
         0.00311416920497
         0.00313300458864
         0.00315188109717
         0.003170798753
         0.00318975757843
         0.00320875759563
         0.00322779882663
         0.00324688129335
         0.00326600501758
         0.00328517002104
         0.00330437632531
         0.00332362395188
         0.00334291292219
         0.00336224325755
         0.00338161497922
         0.00340102810838
         0.00342048266618
         0.00343997867366
         0.00345951615185
         0.00347909512174
         0.00349871560426
         0.00351837762032
         0.00353808119081
         0.0035578263366
         0.00357761307855
         0.00359744143753
         0.00361731143438
         0.00363722308998
         0.00365717642522
         0.00367717146099
         0.00369720821823
         0.00371728671792
         0.00373740698105
         0.0037575690287
         0.00377777288198
         0.00379801856205
         0.00381830609016
         0.00383863548762
         0.00385900677583
         0.00387941997627
         0.00389987511052
         0.00392037220024
         0.00394091126723
         0.00396149233336
         0.00398211542066
         0.00400278055126
         0.00402348774743
         0.00404423703157
         0.00406502842625
         0.00408586195416
         0.00410673763817
         0.0041276555013
         0.00414861556674
         0.00416961785788
         0.00419066239827
         0.00421174921165
         0.00423287832198
         0.00425404975339
         0.00427526353026
         0.00429651967714
         0.00431781821883
         0.00433915918037
         0.004360542587
         0.00438196846424
         0.00440343683782
         0.00442494773377
         0.00444650117833
         0.00446809719805
         0.00448973581974
         0.00451141707048
         0.00453314097765
         0.00455490756892
         0.00457671687226
         0.00459856891595
         0.00462046372858
         0.00464240133905
         0.0046643817766
         0.0046864050708
         0.00470847125156
         0.00473058034913
         0.0047527323941
         0.00477492741745
         0.0047971654505
         0.00481944652495
         0.00484177067287
         0.00486413792673
         0.00488654831937
         0.00490900188405
         0.00493149865441
         0.00495403866453
         0.00497662194886
         0.00499924854233
         0.00502191848025
         0.0050446317984
         0.00506738853298
         0.00509018872066
         0.00511303239854
         0.0051359196042
         0.00515885037569
         0.00518182475152
         0.00520484277069
         0.00522790447269
         0.00525100989751
         0.00527415908562
         0.00529735207801
         0.00532058891619
         0.00534386964218
         0.00536719429853
         0.00539056292832
         0.00541397557517
         0.00543743228326
         0.0054609330973
         0.00548447806256
         0.0055080672249
         0.00553170063074
         0.00555537832706
         0.00557910036144
         0.00560286678206
         0.00562667763769
         0.00565053297769
         0.00567443285205
         0.00569837731137
         0.00572236640687
         0.00574640019041
         0.00577047871447
         0.0057946020322
         0.00581877019736
         0.00584298326441
         0.00586724128844
         0.00589154432522
         0.00591589243119
         0.00594028566349
         0.00596472407992
         0.005989207739
         0.00601373669994
         0.00603831102265
         0.00606293076777
         0.00608759599666
         0.00611230677138
         0.00613706315476
         0.00616186521035
         0.00618671300244
         0.0062116065961
         0.00623654605713
         0.00626153145212
         0.00628656284841
         0.00631164031413
         0.0063367639182
         0.00636193373032
         0.006387149821
         0.00641241226155
         0.00643772112409
         0.00646307648155
         0.0064884784077
         0.00651392697713
         0.00653942226528
         0.0065649643484
         0.00659055330364
         0.00661618920896
         0.0066418721432
         0.00666760218609
         0.00669337941821
         0.00671920392103
         0.0067450757769
         0.00677099506909
         0.00679696188174
         0.00682297629992
         0.0068490384096
         0.00687514829766
         0.00690130605182
         0.00692751176068
         0.00695376551367
         0.00698006740102
         0.00700641751377
         0.00703281594372
         0.00705926278342
         0.00708575812616
         0.00711230206594
         0.00713889469743
         0.00716553611599
         0.00719222641763
         0.00721896569898
         0.00724575405728
         0.00727259159035
         0.00729947839661
         0.00732641457498
         0.00735340022495
         0.00738043544647
         0.00740752034003
         0.00743465500655
         0.00746183954739
         0.00748907406436
         0.00751635865966
         0.00754369343588
         0.00757107849595
         0.00759851394318
         0.00762599988118
         0.00765353641386
         0.00768112364543
         0.00770876168033
         0.00773645062328
         0.00776419057919
         0.00779198165318
         0.00781982395055
         0.00784771757677
         0.00787566263742
         0.00790365923822
         0.00793170748499
         0.00795980748362
         0.00798795934006
         0.00801616316029
         0.00804441905032
         0.00807272711614
         0.00810108746372
         0.00812950019899
         0.00815796542781
         0.00818648325596
         0.00821505378911
         0.0082436771328
         0.00827235339243
         0.00830108267322
         0.00832986508022
         0.00835870071825
         0.00838758969192
         0.00841653210559
         0.00844552806334
         0.00847457766896
         0.00850368102593
         0.00853283823742
         0.00856204940621
         0.00859131463474
         0.00862063402505
         0.00865000767876
         0.00867943569707
         0.0087089181807
         0.00873845522994
         0.00876804694454
         0.00879769342376
         0.00882739476632
         0.0088571510704
         0.00888696243356
         0.00891682895282
         0.00894675072455
         0.00897672784448
         0.00900676040769
         0.0090368485086
         0.00906699224089
         0.00909719169757
         0.00912744697087
         0.00915775815228
         0.00918812533251
         0.00921854860146
         0.00924902804823
         0.00927956376105
         0.0093101558273
         0.00934080433349
         0.00937150936521
         0.00940227100714
         0.009433089343
         0.00946396445557
         0.00949489642662
         0.00952588533694
         0.00955693126627
         0.00958803429333
         0.00961919449575
         0.00965041195008
         0.00968168673178
         0.00971301891517
         0.00974440857341
         0.00977585577852
         0.00980736060131
         0.00983892311138
         0.00987054337712
         0.00990222146565
         0.00993395744282
         0.00996575137322
         0.00999760332009
         0.0100295133454
         0.0100614815096
         0.010093507872
         0.0101255924904
         0.0101577354212
         0.0101899367193
         0.0102221964382
         0.01025451463
         0.0102868913453
         0.0103193266329
         0.0103518205405
         0.010384373114
         0.0104169843977
         0.0104496544343
         0.010482383265
         0.0105151709294
         0.0105480174652
         0.0105809229087
         0.0106138872945
         0.0106469106556
         0.0106799930234
         0.0107131344277
         0.0107463348969
         0.0107795944577
         0.0108129131355
         0.010846290954
         0.0108797279357
         0.0109132241013
         0.0109467794704
         0.010980394061
         0.0110140678899
         0.0110478009723
         0.0110815933222
         0.0111154449523
         0.0111493558738
         0.0111833260969
         0.0112173556303
         0.0112514444815
         0.0112855926568
         0.0113198001614
         0.0113540669991
         0.0113883931726
         0.0114227786835
         0.0114572235322
         0.0114917277181
         0.0115262912394
         0.0115609140932
         0.0115955962757
         0.0116303377819
         0.0116651386059
         0.0116999987406
         0.0117349181783
         0.0117698969099
         0.0118049349257
         0.0118400322149
         0.011875188766
         0.0119104045662
         0.0119456796024
         0.0119810138602
         0.0120164073247
         0.0120518599799
         0.0120873718092
         0.0121229427953
         0.0121585729199
         0.0121942621643
         0.0122300105089
         0.0122658179334
         0.0123016844169
         0.0123376099378
         0.0123735944739
         0.0124096380025
         0.0124457405001
         0.0124819019427
         0.012518122306
         0.0125544015648
         0.0125907396935
         0.0126271366662
         0.0126635924563
         0.0127001070369
         0.0127366803806
         0.0127733124595
         0.0128100032454
         0.0128467527099
         0.0128835608238
         0.012920427558
         0.0129573528829
         0.0129943367686
         0.0130313791849
         0.0130684801014
         0.0131056394875
         0.0131428573123
         0.0131801335447
         0.0132174681534
         0.0132548611071
         0.0132923123742
         0.013329821923
         0.0133673897217
         0.0134050157384
         0.0134426999413
         0.0134804422984
         0.0135182427776
         0.013556101347
         0.0135940179747
         0.0136319926285
         0.0136700252767
         0.0137081158874
         0.0137462644289
         0.0137844708695
         0.0138227351779
         0.0138610573225
         0.0138994372724
         0.0139378749964
         0.0139763704638
         0.0140149236442
         0.0140535345071
         0.0140922030225
         0.0141309291608
         0.0141697128925
         0.0142085541885
         0.01424745302
         0.0142864093586
         0.0143254231763
         0.0143644944455
         0.014403623139
         0.0144428092301
         0.0144820526925
         0.0145213535004
         0.0145607116284
         0.0146001270519
         0.0146395997465
         0.0146791296886
         0.0147187168551
         0.0147583612234
         0.0147980627717
         0.0148378214788
         0.014877637324
         0.0149175102874
         0.0149574403498
         0.0149974274927
         0.0150374716984
         0.0150775729497
         0.0151177312305
         0.0151579465252
         0.0151982188192
         0.0152385480985
         0.01527893435
         0.0153193775612
         0.0153598777207
         0.0154004348175
         0.0154410488416
         0.0154817197837
         0.0155224476353
         0.0155632323887
         0.0156040740369
         0.0156449725738
         0.015685927994
         0.0157269402928
         0.0157680094664
         0.0158091355117
         0.0158503184266
         0.0158915582094
         0.0159328548595
         0.0159742083769
         0.0160156187624
         0.0160570860177
         0.0160986101452
         0.016140191148
         0.0161818290302
         0.0162235237964
         0.0162652754523
         0.016307084004
         0.0163489494588
         0.0163908718244
         0.0164328511096
         0.0164748873238
         0.0165169804772
         0.0165591305809
         0.0166013376466
         0.016643601687
         0.0166859227153
         0.0167283007459
         0.0167707357935
         0.016813227874
         0.0168557770039
         0.0168983832004
         0.0169410464817
         0.0169837668667
         0.017026544375
         0.0170693790271
         0.0171122708442
         0.0171552198484
         0.0171982260626
         0.0172412895102
         0.0172844102158
         0.0173275882045
         0.0173708235024
         0.0174141161362
         0.0174574661335
         0.0175008735227
         0.0175443383328
         0.017587860594
         0.0176314403369
         0.0176750775931
         0.0177187723948
         0.0177625247753
         0.0178063347685
         0.0178502024091
         0.0178941277325
         0.0179381107751
         0.0179821515741
         0.0180262501673
         0.0180704065933
         0.0181146208918
         0.018158893103
         0.018203223268
         0.0182476114286
         0.0182920576277
         0.0183365619086
         0.0183811243156
         0.0184257448938
         0.0184704236892
         0.0185151607483
         0.0185599561187
         0.0186048098487
         0.0186497219874
         0.0186946925845
         0.0187397216909
         0.018784809358
         0.0188299556382
         0.0188751605844
         0.0189204242506
         0.0189657466916
         0.0190111279627
         0.0190565681204
         0.0191020672217
         0.0191476253246
         0.0191932424878
         0.0192389187708
         0.019284654234
         0.0193304489384
         0.0193763029461
         0.0194222163198
         0.0194681891231
         0.0195142214203
         0.0195603132766
         0.019606464758
         0.0196526759313
         0.0196989468641
         0.0197452776248
         0.0197916682827
         0.0198381189077
         0.0198846295707
         0.0199312003433
         0.0199778312981
         0.0200245225083
         0.0200712740479
         0.0201180859919
         0.0201649584161
         0.0202118913968
         0.0202588850114
         0.0203059393382
         0.020353054456
         0.0204002304447
         0.0204474673847
         0.0204947653576
         0.0205421244456
         0.0205895447315
         0.0206370262994
         0.0206845692335
         0.0207321736189
         0.0207798395412
         0.0208275670866
         0.0208753563415
         0.0209232073927
         0.0209711203274
         0.0210190952328
         0.0210671321965
         0.0211152313059
         0.0211633926485
         0.021211616312
         0.0212599023835
         0.0213082509503
         0.0213566620992
         0.0214051359168
         0.0214536724892
         0.0215022719022
         0.0215509342407
         0.0215996595895
         0.0216484480323
         0.0216972996523
         0.0217462145318
         0.0217951927523
         0.0218442343944
         0.0218933395374
         0.0219425082599
         0.0219917406391
         0.0220410367512
         0.0220903966709
         0.0221398204717
         0.0221893082257
         0.0222388600033
         0.0222884758737
         0.0223381559042
         0.0223879001606
         0.0224377087069
         0.0224875816051
         0.0225375189156
         0.0225875206967
         0.0226375870046
         0.0226877178937
         0.0227379134159
         0.0227881736211
         0.0228384985568
         0.0228888882682
         0.0229393427981
         0.0229898621867
         0.0230404464718
         0.0230910956884
         0.0231418098689
         0.0231925890429
         0.0232434332373
         0.0232943424759
         0.0233453167797
         0.0233963561665
         0.0234474606511
         0.0234986302452
         0.0235498649572
         0.0236011647922
         0.0236525297518
         0.0237039598345
         0.0237554550348
         0.0238070153441
         0.02385864075
         0.0239103312362
         0.0239620867828
         0.0240139073662
         0.0240657929586
         0.0241177435284
         0.0241697590398
         0.0242218394532
         0.0242739847245
         0.0243261948054
         0.0243784696434
         0.0244308091816
         0.0244832133587
         0.0245356821086
         0.0245882153609
         0.0246408130406
         0.0246934750676
         0.0247462013574
         0.0247989918206
         0.0248518463625
         0.0249047648839
         0.0249577472803
         0.0250107934421
         0.0250639032544
         0.0251170765973
         0.0251703133453
         0.0252236133677
         0.0252769765282
         0.0253304026852
         0.0253838916911
         0.025437443393
         0.0254910576322
         0.025544734244
         0.0255984730581
         0.025652273898
         0.0257061365814
         0.0257600609199
         0.0258140467188
         0.0258680937775
         0.0259222018887
         0.0259763708393
         0.0260306004093
         0.0260848903724
         0.0261392404959
         0.0261936505403
         0.0262481202595
         0.0263026494006
         0.026357237704
         0.0264118849032
         0.0264665907245
         0.0265213548876
         0.0265761771048
         0.0266310570814
         0.0266859945154
         0.0267409890975
         0.0267960405113
         0.0268511484325
         0.0269063125298
         0.026961532464
         0.0270168078886
         0.0270721384494
         0.027127523785
         0.027182963527
         0.0272384572999
         0.0272940047213
         0.0273496054023
         0.0274052589477
         0.0274609649556
         0.0275167230181
         0.0275725327216
         0.0276283936463
         0.0276843053669
         0.0277402674527
         0.0277962794675
         0.0278523409701
         0.0279084515141
         0.0279646106486
         0.0280208179177
         0.0280770728612
         0.0281333750144
         0.0281897239086
         0.028246119071
         0.028302560025
         0.0283590462902
         0.0284155773828
         0.0284721528156
         0.0285287720983
         0.0285854347374
         0.0286421402367
         0.0286988880972
         0.0287556778174
         0.0288125088935
         0.0288693808193
         0.0289262930869
         0.0289832451862
         0.0290402366054
         0.0290972668315
         0.0291543353498
         0.0292114416444
         0.0292685851984
         0.0293257654941
         0.0293829820129
         0.0294402342358
         0.0294975216433
         0.0295548437158
         0.0296121999334
         0.0296695897764
         0.0297270127255
         0.0297844682617
         0.0298419558665
         0.0298994750224
         0.0299570252125
         0.0300146059213
         0.0300722166343
         0.0301298568385
         0.0301875260224
         0.0302452236765
         0.030302949293
         0.030360702366
         0.0304184823921
