looks/curve2_75.spi1d
Version 1
From 0.0 1.0
Length  4096
Components 1
{
         1.55340391491e-20
         1.22503351239e-05
         2.45258227819e-05
         3.68266741301e-05
         4.91530986411e-05
         6.15053041112e-05
         7.38834966681e-05
         8.62878807786e-05
         9.87186592558e-05
         0.000111176033267
         0.00012366020234
         0.000136171364374
         0.000148709715642
         0.000161275450802
         0.000173868762905
         0.0001864898434
         0.000199138882141
         0.000211816067399
         0.000224521585865
         0.000237255622661
         0.000250018361342
         0.000262809983912
         0.000275630670823
         0.000288480600989
         0.000301359951788
         0.000314268899076
         0.000327207617187
         0.000340176278948
         0.00035317505568
         0.00036620411721
         0.000379263631876
         0.000392353766538
         0.000405474686579
         0.00041862655592
         0.000431809537023
         0.000445023790899
         0.000458269477117
         0.000471546753809
         0.000484855777681
         0.000498196704019
         0.000511569686694
         0.000524974878175
         0.000538412429528
         0.000551882490436
         0.000565385209192
         0.00057892073272
         0.000592489206572
         0.000606090774941
         0.00061972558067
         0.000633393765254
         0.000647095468851
         0.00066083083029
         0.000674599987077
         0.000688403075401
         0.000702240230148
         0.000716111584901
         0.000730017271949
         0.000743957422301
         0.000757932165685
         0.00077194163056
         0.000785985944124
         0.000800065232317
         0.000814179619835
         0.000828329230133
         0.000842514185434
         0.000856734606737
         0.000870990613822
         0.000885282325261
         0.000899609858423
         0.000913973329483
         0.00092837285343
         0.00094280854407
         0.000957280514041
         0.000971788874814
         0.000986333736704
         0.00100091520888
         0.00101553339936
         0.00103018841503
         0.00104488036166
         0.00105960934389
         0.00107437546525
         0.00108917882817
         0.00110401953398
         0.00111889768292
         0.00113381337414
         0.00114876670574
         0.00116375777473
         0.00117878667707
         0.00119385350767
         0.00120895836039
         0.00122410132805
         0.00123928250247
         0.0012545019744
         0.00126975983362
         0.00128505616888
         0.00130039106794
         0.00131576461756
         0.00133117690353
         0.00134662801064
         0.00136211802274
         0.0013776470227
         0.00139321509245
         0.00140882231295
         0.00142446876424
         0.00144015452543
         0.00145587967471
         0.00147164428932
         0.00148744844564
         0.00150329221911
         0.00151917568431
         0.00153509891489
         0.00155106198367
         0.00156706496256
         0.00158310792263
         0.00159919093409
         0.0016153140663
         0.00163147738776
         0.00164768096617
         0.00166392486838
         0.00168020916043
         0.00169653390755
         0.00171289917417
         0.00172930502392
         0.00174575151963
         0.00176223872337
         0.00177876669642
         0.00179533549931
         0.0018119451918
         0.0018285958329
         0.00184528748089
         0.00186202019329
         0.00187879402691
         0.00189560903784
         0.00191246528145
         0.00192936281241
         0.00194630168468
         0.00196328195154
         0.0019803036656
         0.00199736687877
         0.0020144716423
         0.00203161800678
         0.00204880602215
         0.00206603573772
         0.00208330720212
         0.0021006204634
         0.00211797556894
         0.00213537256555
         0.00215281149939
         0.00217029241606
         0.00218781536053
         0.00220538037721
         0.00222298750992
         0.00224063680192
         0.00225832829591
         0.00227606203401
         0.00229383805781
         0.00231165640837
         0.00232951712621
         0.00234742025131
         0.00236536582315
         0.00238335388069
         0.00240138446241
         0.00241945760625
         0.00243757334972
         0.00245573172979
         0.00247393278302
         0.00249217654545
         0.0025104630527
         0.00252879233991
         0.00254716444182
         0.00256557939269
         0.00258403722638
         0.00260253797632
         0.00262108167553
         0.00263966835663
         0.00265829805185
         0.002676970793
         0.00269568661154
         0.00271444553855
         0.00273324760472
         0.00275209284041
         0.00277098127561
         0.00278991293998
         0.00280888786282
         0.00282790607313
         0.00284696759956
         0.00286607247047
         0.0028852207139
         0.00290441235759
         0.00292364742899
         0.00294292595527
         0.00296224796333
         0.00298161347978
         0.00300102253098
         0.00302047514304
         0.00303997134182
         0.00305951115294
         0.00307909460179
         0.00309872171353
         0.00311839251312
         0.00313810702529
         0.00315786527458
         0.00317766728533
         0.00319751308171
         0.00321740268769
         0.00323733612709
         0.00325731342354
         0.00327733460054
         0.00329739968142
         0.00331750868938
         0.00333766164749
         0.00335785857868
         0.00337809950578
         0.00339838445149
         0.00341871343842
         0.00343908648908
         0.00345950362589
         0.00347996487119
         0.00350047024724
         0.00352101977625
         0.00354161348036
         0.00356225138165
         0.00358293350218
         0.00360365986396
         0.00362443048896
         0.00364524539916
         0.00366610461651
         0.00368700816294
         0.0037079560604
         0.00372894833085
         0.00374998499625
         0.00377106607861
         0.00379219159995
         0.00381336158234
         0.00383457604789
         0.00385583501877
         0.00387713851722
         0.00389848656552
         0.00391987918606
         0.00394131640131
         0.0039627982338
         0.0039843247062
         0.00400589584127
         0.00402751166188
         0.00404917219103
         0.00407087745185
         0.00409262746759
         0.00411442226167
         0.00413626185765
         0.00415814627925
         0.00418007555036
         0.00420204969503
         0.00422406873753
         0.00424613270227
         0.00426824161389
         0.00429039549724
         0.00431259437736
         0.00433483827951
         0.00435712722921
         0.00437946125217
         0.00440184037438
         0.00442426462206
         0.00444673402169
         0.00446924860002
         0.00449180838407
         0.00451441340115
         0.00453706367883
         0.004559759245
         0.00458250012785
         0.00460528635588
         0.0046281179579
         0.00465099496304
         0.00467391740079
         0.00469688530095
         0.00471989869368
         0.00474295760951
         0.00476606207931
         0.00478921213432
         0.00481240780618
         0.0048356491269
         0.00485893612889
         0.00488226884494
         0.00490564730829
         0.00492907155255
         0.00495254161178
         0.00497605752046
         0.00499961931352
         0.00502322702632
         0.00504688069469
         0.00507058035491
         0.00509432604372
         0.00511811779836
         0.00514195565652
         0.00516583965642
         0.00518976983675
         0.00521374623672
         0.00523776889604
         0.00526183785495
         0.00528595315422
         0.00531011483515
         0.00533432293958
         0.00535857750993
         0.00538287858914
         0.00540722622073
         0.0054316204488
         0.00545606131803
         0.00548054887369
         0.00550508316163
         0.00552966422832
         0.00555429212084
         0.00557896688688
         0.00560368857477
         0.00562845723346
         0.00565327291256
         0.00567813566229
         0.00570304553357
         0.00572800257797
         0.00575300684772
         0.00577805839573
         0.00580315727562
         0.00582830354167
         0.00585349724889
         0.00587873845299
         0.00590402721038
         0.00592936357822
         0.00595474761439
         0.0059801793775
         0.00600565892692
         0.00603118632278
         0.00605676162595
         0.00608238489808
         0.00610805620161
         0.00613377559974
         0.00615954315647
         0.00618535893662
         0.00621122300579
         0.0062371354304
         0.00626309627771
         0.00628910561578
         0.00631516351353
         0.00634127004072
         0.00636742526796
         0.00639362926671
         0.00641988210931
         0.00644618386898
         0.00647253461979
         0.00649893443675
         0.00652538339571
         0.00655188157348
         0.00657842904774
         0.00660502589712
         0.00663167220115
         0.00665836804031
         0.00668511349602
         0.00671190865065
         0.00673875358754
         0.00676564839096
         0.00679259314619
         0.00681958793948
         0.00684663285804
         0.00687372799012
         0.00690087342494
         0.00692806925273
         0.00695531556476
         0.00698261245331
         0.00700996001169
         0.00703735833426
         0.00706480751642
         0.00709230765463
         0.00711985884639
         0.00714746119027
         0.00717511478582
         0.0072028197336
         0.00723057613512
         0.00725838409284
         0.00728624371013
         0.00731415509126
         0.00734211834135
         0.00737013356638
         0.00739820087313
         0.00742632036918
         0.00745449216288
         0.00748271636331
         0.00751099308029
         0.00753932242431
         0.00756770450656
         0.00759613943884
         0.0076246273336
         0.00765316830385
         0.00768176246322
         0.00771040992584
         0.00773911080639
         0.00776786522004
         0.00779667328243
         0.00782553510964
         0.00785445081819
         0.007883420525
         0.00791244434734
         0.00794152240285
         0.0079706548095
         0.00799984168554
         0.00802908314952
         0.00805837932021
         0.00808773031664
         0.00811713625803
         0.00814659726376
         0.00817611345339
         0.00820568494659
         0.00823531186315
         0.00826499432293
         0.00829473244583
         0.0083245263518
         0.0083543761608
         0.00838428199275
         0.00841424396755
         0.008444262205
         0.00847433682485
         0.00850446794669
         0.00853465568999
         0.00856490017406
         0.008595201518
         0.00862555984071
         0.00865597526083
         0.00868644789677
         0.00871697786661
         0.00874756528815
         0.00877821027882
         0.00880891295572
         0.00883967343553
         0.00887049183454
         0.00890136826859
         0.00893230285307
         0.00896329570287
         0.00899434693239
         0.00902545665547
         0.0090566249854
         0.0090878520349
         0.00911913791606
         0.00915048274035
         0.00918188661856
         0.00921334966083
         0.00924487197657
         0.00927645367447
         0.00930809486244
         0.00933979564765
         0.00937155613641
         0.00940337643426
         0.00943525664584
         0.00946719687492
         0.00949919722439
         0.00953125779617
         0.00956337869126
         0.00959556000967
         0.00962780185042
         0.00966010431147
         0.00969246748976
         0.00972489148115
         0.00975737638039
         0.0097899222811
         0.00982252927577
         0.00985519745569
         0.00988792691098
         0.0099207177305
         0.0099535700019
         0.00998648381152
         0.0100194592444
         0.0100524963844
         0.0100855953138
         0.0101187561136
         0.0101519788635
         0.0101852636417
         0.0102186105249
         0.0102520195884
         0.0102854909061
         0.0103190245501
         0.0103526205913
         0.0103862790988
         0.0104200001402
         0.0104537837814
         0.0104876300868
         0.010521539119
         0.0105555109389
         0.0105895456058
         0.0106236431772
         0.0106578037089
         0.0106920272547
         0.0107263138669
         0.0107606635957
         0.0107950764895
         0.0108295525949
         0.0108640919566
         0.0108986946172
         0.0109333606175
         0.0109680899962
         0.0110028827904
         0.0110377390349
         0.011072658763
         0.0111076420058
         0.011142688793
         0.011177799152
         0.0112129731089
         0.0112482106878
         0.0112835119111
         0.0113188767995
         0.0113543053719
         0.0113897976458
         0.0114253536369
         0.0114609733594
         0.0114966568256
         0.0115324040466
         0.0115682150317
         0.0116040897889
         0.0116400283246
         0.0116760306436
         0.0117120967494
         0.0117482266441
         0.0117844203282
         0.0118206778011
         0.0118569990606
         0.0118933841033
         0.0119298329243
         0.0119663455177
         0.0120029218761
         0.012039561991
         0.0120762658526
         0.0121130334498
         0.0121498647707
         0.0121867598018
         0.0122237185287
         0.0122607409359
         0.0122978270068
         0.0123349767238
         0.012372190068
         0.0124094670198
         0.0124468075585
         0.0124842116624
         0.0125216793089
         0.0125592104745
         0.0125968051347
         0.0126344632643
         0.012672184837
         0.012709969826
         0.0127478182034
         0.0127857299407
         0.0128237050086
         0.012861743377
         0.0128998450152
         0.0129380098917
         0.0129762379744
         0.0130145292306
         0.0130528836269
         0.0130913011294
         0.0131297817034
         0.013168325314
         0.0132069319255
         0.0132456015018
         0.0132843340064
         0.0133231294021
         0.0133619876516
         0.0134009087169
         0.0134398925598
         0.0134789391416
         0.0135180484234
         0.0135572203659
         0.0135964549295
         0.0136357520744
         0.0136751117605
         0.0137145339473
         0.0137540185945
         0.0137935656614
         0.013833175107
         0.0138728468904
         0.0139125809705
         0.0139523773061
         0.0139922358561
         0.014032156579
         0.0140721394337
         0.0141121843788
         0.0141522913732
         0.0141924603755
         0.0142326913447
         0.0142729842397
         0.0143133390198
         0.014353755644
         0.0143942340719
         0.0144347742631
         0.0144753761773
         0.0145160397747
         0.0145567650156
         0.0145975518607
         0.0146384002707
         0.0146793102071
         0.0147202816315
         0.0147613145057
         0.0148024087923
         0.014843564454
         0.0148847814542
         0.0149260597566
         0.0149673993253
         0.0150088001252
         0.0150502621216
         0.0150917852803
         0.0151333695677
         0.015175014951
         0.0152167213978
         0.0152584888765
         0.015300317356
         0.0153422068062
         0.0153841571975
         0.0154261685011
         0.0154682406889
         0.0155103737338
         0.0155525676094
         0.01559482229
         0.015637137751
         0.0156795139685
         0.0157219509196
         0.0157644485822
         0.0158070069349
         0.0158496259576
         0.0158923056306
         0.0159350459353
         0.015977846854
         0.0160207083698
         0.0160636304666
         0.0161066131294
         0.0161496563437
         0.0161927600964
         0.0162359243747
         0.0162791491672
         0.0163224344629
         0.016365780252
         0.0164091865255
         0.0164526532751
         0.0164961804938
         0.016539768175
         0.0165834163133
         0.0166271249039
         0.0166708939433
         0.0167147234284
         0.0167586133573
         0.016802563729
         0.0168465745431
         0.0168906458003
         0.0169347775022
         0.0169789696512
         0.0170232222505
         0.0170675353045
         0.0171119088182
         0.0171563427975
         0.0172008372494
         0.0172453921815
         0.0172900076024
         0.0173346835218
         0.0173794199501
         0.0174242168984
         0.0174690743791
         0.0175139924052
         0.0175589709907
         0.0176040101504
         0.0176491099002
         0.0176942702567
         0.0177394912375
         0.0177847728609
         0.0178301151464
         0.0178755181142
         0.0179209817854
         0.0179665061821
         0.0180120913272
         0.0180577372446
         0.0181034439589
         0.0181492114959
         0.0181950398821
         0.0182409291449
         0.0182868793126
         0.0183328904146
         0.0183789624809
         0.0184250955426
         0.0184712896316
         0.0185175447809
         0.0185638610242
         0.0186102383962
         0.0186566769325
         0.0187031766695
         0.0187497376447
         0.0187963598964
         0.0188430434638
         0.018889788387
         0.0189365947071
         0.018983462466
         0.0190303917066
         0.0190773824727
         0.0191244348089
         0.0191715487609
         0.0192187243752
         0.0192659616993
         0.0193132607814
         0.0193606216709
         0.0194080444179
         0.0194555290736
         0.01950307569
         0.01955068432
         0.0195983550175
         0.0196460878372
         0.0196938828349
         0.0197417400672
         0.0197896595917
         0.0198376414667
         0.0198856857518
         0.0199337925072
         0.0199819617942
         0.0200301936749
         0.0200784882124
         0.0201268454708
         0.020175265515
         0.0202237484109
         0.0202722942253
         0.0203209030259
         0.0203695748813
         0.0204183098613
         0.0204671080362
         0.0205159694776
         0.0205648942579
         0.0206138824503
         0.0206629341291
         0.0207120493695
         0.0207612282477
         0.0208104708407
         0.0208597772264
         0.0209091474838
         0.0209585816929
         0.0210080799343
         0.0210576422898
         0.0211072688422
         0.0211569596749
         0.0212067148727
         0.021256534521
         0.0213064187062
         0.0213563675156
         0.0214063810374
         0.0214564593602
         0.0215066025735
         0.0215568107673
         0.0216070840322
         0.0216574224589
         0.0217078261388
         0.0217582951632
         0.0218088296239
         0.0218594296127
         0.0219100952213
         0.0219608265415
         0.0220116236649
         0.022062486683
         0.022113415687
         0.0221644107676
         0.0222154720153
         0.02226659952
         0.022317793371
         0.0223690536569
         0.0224203804656
         0.0224717738845
         0.0225232339996
         0.0225747608962
         0.0226263546588
         0.0226780153703
         0.0227297431128
         0.0227815379671
         0.0228334000124
         0.0228853293268
         0.0229373259868
         0.0229893900673
         0.0230415216415
         0.0230937207811
         0.0231459875557
         0.0231983220335
         0.0232507242802
         0.0233031943599
         0.0233557323344
         0.0234083382635
         0.0234610122045
         0.0235137542127
         0.0235665643406
         0.0236194426386
         0.0236723891545
         0.0237254039331
         0.0237784870171
         0.0238316384458
         0.0238848582562
         0.023938146482
         0.0239915031541
         0.0240449283001
         0.0240984219448
         0.0241519841093
         0.0242056148118
         0.0242593140669
         0.0243130818858
         0.0243669182762
         0.0244208232422
         0.024474796784
         0.0245288388984
         0.024582949578
         0.0246371288118
         0.0246913765845
         0.024745692877
         0.0248000776659
         0.0248545309237
         0.0249090526184
         0.0249636427139
         0.0250183011695
         0.02507302794
         0.0251278229755
         0.0251826862217
         0.0252376176192
         0.025292617104
         0.0253476846072
         0.0254028200549
         0.0254580233681
         0.0255132944626
         0.0255686332492
         0.0256240396333
         0.0256795135149
         0.0257350547886
         0.0257906633436
         0.0258463390633
         0.0259020818257
         0.0259578915028
         0.0260137679611
         0.0260697110608
         0.0261257206565
         0.0261817965967
         0.0262379387235
         0.0262941468732
         0.0263504208756
         0.0264067605542
         0.0264631657261
         0.0265196362019
         0.0265761717856
         0.0266327722747
         0.0266894374596
         0.0267461671244
         0.026802961046
         0.0268598189945
         0.0269167407328
         0.0269737260168
         0.0270307745954
         0.0270878862099
         0.0271450605945
         0.027202297476
         0.0272595965736
         0.0273169575991
         0.0273743802564
         0.0274318642419
         0.0274894092443
         0.0275470149443
         0.0276046810146
         0.02766240712
         0.0277201929171
         0.0277780380546
         0.0278359421726
         0.0278939049033
         0.0279519258704
         0.02801000469
         0.0280681409701
         0.0281263343115
         0.0281845843073
         0.0282428905434
         0.0283012525987
         0.0283596700455
         0.028418142449
         0.0284766693682
         0.0285352503557
         0.028593884958
         0.0286525727156
         0.0287113131633
         0.0287701058304
         0.0288289502406
         0.0288878459127
         0.02894679236
         0.0290057890915
         0.0290648356112
         0.0291239314187
         0.0291830760093
         0.0292422688742
         0.0293015095007
         0.0293607973723
         0.0294201319689
         0.0294795127671
         0.0295389392403
         0.0295984108589
         0.0296579270903
         0.0297174873994
         0.0297770912487
         0.0298367380982
         0.029896427406
         0.0299561586282
         0.030015931219
         0.0300757446314
         0.0301355983167
         0.0301954917253
         0.0302554243062
         0.030315395508
         0.0303754047783
         0.0304354515646
         0.0304955353138
         0.0305556554729
         0.0306158114889
         0.0306760028091
         0.0307362288813
         0.0307964891539
         0.0308567830761
         0.0309171100981
         0.0309774696713
         0.0310378612486
         0.0310982842841
         0.0311587382341
         0.0312192225564
         0.0312797367112
         0.0313402801609
         0.0314008523701
         0.0314614528065
         0.0315220809403
         0.0315827362449
         0.0316434181968
         0.0317041262758
         0.0317648599654
         0.0318256187529
         0.0318864021293
         0.03194720959
         0.0320080406343
         0.0320688947664
         0.0321297714949
         0.0321906703334
         0.0322515908002
         0.0323125324193
         0.0323734947196
         0.032434477236
         0.0324954795088
         0.0325565010845
         0.0326175415155
         0.0326786003607
