looks/curve3_25.spi1d
Version 1
From 0.0 1.0
Length  4096
Components 1
{
         -4.66023320429e-20
         1.07688724004e-05
         2.15603310399e-05
         3.23745439386e-05
         4.32116778678e-05
         5.40718983556e-05
         6.49553696924e-05
         7.58622549358e-05
         8.67927159165e-05
         9.77469132433e-05
         0.000108725006308
         0.000119727153293
         0.000130753511171
         0.000141804235719
         0.000152879481516
         0.000163979401952
         0.000175104149231
         0.000186253874381
         0.000197428727252
         0.000208628856531
         0.000219854409736
         0.000231105533231
         0.000242382372227
         0.000253685070787
         0.000265013771833
         0.00027636861715
         0.000287749747392
         0.000299157302088
         0.000310591419646
         0.000322052237358
         0.000333539891408
         0.000345054516875
         0.000356596247738
         0.000368165216884
         0.00037976155611
         0.000391385396131
         0.000403036866584
         0.000414716096033
         0.000426423211977
         0.00043815834085
         0.000449921608033
         0.000461713137854
         0.000473533053596
         0.000485381477501
         0.000497258530778
         0.000509164333603
         0.000521099005132
         0.000533062663498
         0.000545055425822
         0.000557077408217
         0.000569128725793
         0.000581209492662
         0.000593319821945
         0.000605459825773
         0.000617629615298
         0.000629829300696
         0.000642058991171
         0.00065431879496
         0.000666608819344
         0.000678929170644
         0.000691279954235
         0.000703661274547
         0.000716073235071
         0.000728515938363
         0.000740989486053
         0.000753493978847
         0.000766029516533
         0.000778596197988
         0.000791194121182
         0.000803823383183
         0.000816484080162
         0.000829176307401
         0.000841900159295
         0.000854655729359
         0.000867443110235
         0.000880262393694
         0.000893113670641
         0.000905997031127
         0.000918912564344
         0.000931860358641
         0.00094484050152
         0.000957853079648
         0.000970898178859
         0.000983975884162
         0.000997086279741
         0.00101022944897
         0.0010234054744
         0.00103661443779
         0.0010498564201
         0.00106313150147
         0.00107643976129
         0.00108978127814
         0.00110315612982
         0.00111656439337
         0.00113000614506
         0.00114348146038
         0.00115699041408
         0.00117053308015
         0.00118410953185
         0.00119771984167
         0.00121136408139
         0.00122504232205
         0.00123875463395
         0.00125250108669
         0.00126628174915
         0.00128009668951
         0.00129394597521
         0.00130782967304
         0.00132174784906
         0.00133570056866
         0.00134968789655
         0.00136370989674
         0.00137776663259
         0.0013918581668
         0.00140598456138
         0.0014201458777
         0.00143434217649
         0.00144857351781
         0.00146283996111
         0.00147714156518
         0.00149147838819
         0.00150585048769
         0.0015202579206
         0.00153470074325
         0.00154917901133
         0.00156369277996
         0.00157824210363
         0.00159282703627
         0.0016074476312
         0.00162210394117
         0.00163679601836
         0.00165152391435
         0.0016662876802
         0.00168108736637
         0.00169592302279
         0.00171079469883
         0.00172570244331
         0.00174064630453
         0.00175562633025
         0.0017706425677
         0.00178569506358
         0.00180078386407
         0.00181590901487
         0.00183107056114
         0.00184626854755
         0.00186150301828
         0.001876774017
         0.00189208158693
         0.00190742577078
         0.00192280661079
         0.00193822414874
         0.00195367842595
         0.00196916948326
         0.00198469736108
         0.00200026209936
         0.00201586373762
         0.00203150231491
         0.0020471778699
         0.00206289044079
         0.00207864006538
         0.00209442678104
         0.00211025062475
         0.00212611163307
         0.00214200984216
         0.0021579452878
         0.00217391800536
         0.00218992802984
         0.00220597539586
         0.00222206013767
         0.00223818228914
         0.0022543418838
         0.00227053895479
         0.00228677353493
         0.00230304565667
         0.00231935535215
         0.00233570265313
         0.00235208759109
         0.00236851019714
         0.00238497050209
         0.00240146853645
         0.0024180043304
         0.00243457791382
         0.0024511893163
         0.00246783856712
         0.0024845256953
         0.00250125072956
         0.00251801369834
         0.00253481462981
         0.00255165355188
         0.00256853049221
         0.00258544547818
         0.00260239853693
         0.00261938969536
         0.00263641898013
         0.00265348641766
         0.00267059203414
         0.00268773585555
         0.00270491790763
         0.00272213821593
         0.00273939680577
         0.0027566937023
         0.00277402893043
         0.00279140251492
         0.00280881448032
         0.00282626485101
         0.00284375365117
         0.00286128090485
         0.00287884663591
         0.00289645086805
         0.00291409362483
         0.00293177492964
         0.00294949480575
         0.00296725327627
         0.0029850503642
         0.0030028860924
         0.0030207604836
         0.00303867356043
         0.0030566253454
         0.00307461586092
         0.00309264512928
         0.0031107131727
         0.00312882001329
         0.00314696567309
         0.00316515017406
         0.00318337353808
         0.00320163578695
         0.00321993694243
         0.00323827702621
         0.00325665605992
         0.00327507406516
         0.00329353106348
         0.00331202707639
         0.00333056212536
         0.00334913623187
         0.00336774941733
         0.00338640170318
         0.00340509311081
         0.00342382366164
         0.00344259337707
         0.00346140227851
         0.00348025038738
         0.00349913772514
         0.00351806431323
         0.00353703017314
         0.00355603532641
         0.00357507979459
         0.00359416359928
         0.00361328676214
         0.00363244930487
         0.00365165124925
         0.00367089261709
         0.00369017343031
         0.00370949371088
         0.00372885348086
         0.0037482527624
         0.00376769157772
         0.00378716994916
         0.00380668789916
         0.00382624545025
         0.0038458426251
         0.00386547944647
         0.00388515593726
         0.0039048721205
         0.00392462801935
         0.00394442365711
         0.00396425905722
         0.00398413424328
         0.00400404923904
         0.0040240040684
         0.00404399875545
         0.00406403332443
         0.00408410779978
         0.00410422220609
         0.00412437656817
         0.004144570911
         0.00416480525978
         0.00418507963988
         0.00420539407692
         0.00422574859671
         0.00424614322527
         0.00426657798887
         0.004287052914
         0.00430756802739
         0.00432812335599
         0.00434871892702
         0.00436935476795
         0.00439003090649
         0.00441074737063
         0.00443150418862
         0.00445230138898
         0.00447313900052
         0.00449401705232
         0.00451493557376
         0.00453589459451
         0.00455689414453
         0.0045779342541
         0.00459901495381
         0.00462013627455
         0.00464129824755
         0.00466250090435
         0.00468374427685
         0.00470502839724
         0.0047263532981
         0.00474771901232
         0.00476912557318
         0.00479057301428
         0.00481206136962
         0.00483359067353
         0.00485516096076
         0.0048767722664
         0.00489842462595
         0.00492011807529
         0.00494185265069
         0.00496362838884
         0.00498544532681
         0.00500730350212
         0.00502920295267
         0.00505114371679
         0.00507312583326
         0.00509514934127
         0.00511721428045
         0.0051393206909
         0.00516146861313
         0.00518365808813
         0.00520588915735
         0.0052281618627
         0.00525047624655
         0.00527283235176
         0.00529523022168
         0.00531766990011
         0.00534015143138
         0.0053626748603
         0.00538524023219
         0.00540784759287
         0.00543049698868
         0.00545318846647
         0.00547592207362
         0.00549869785804
         0.00552151586818
         0.00554437615301
         0.00556727876207
         0.00559022374543
         0.00561321115374
         0.00563624103818
         0.00565931345053
         0.00568242844311
         0.00570558606885
         0.00572878638122
         0.00575202943433
         0.00577531528284
         0.00579864398204
         0.00582201558779
         0.0058454301566
         0.00586888774556
         0.0058923884124
         0.00591593221546
         0.00593951921374
         0.00596314946684
         0.00598682303501
         0.00601053997918
         0.00603430036089
         0.00605810424235
         0.00608195168645
         0.00610584275673
         0.0061297775174
         0.00615375603337
         0.00617777837021
         0.0062018445942
         0.0062259547723
         0.00625010897218
         0.00627430726221
         0.00629854971146
         0.00632283638975
         0.00634716736758
         0.00637154271621
         0.00639596250761
         0.00642042681451
         0.00644493571035
         0.00646948926935
         0.00649408756647
         0.00651873067742
         0.0065434186787
         0.00656815164756
         0.00659292966201
         0.00661775280088
         0.00664262114372
         0.00666753477084
         0.00669249376329
         0.00671749820281
         0.00674254817185
         0.00676764375352
         0.0067927850316
         0.00681797209051
         0.00684320501528
         0.00686848389157
         0.00689380880561
         0.0069191798442
         0.0069445970947
         0.006970060645
         0.00699557058353
         0.00702112699919
         0.00704672998138
         0.00707237961996
         0.00709807600525
         0.007123819228
         0.00714960937935
         0.00717544655087
         0.00720133083448
         0.00722726232249
         0.00725324110752
         0.00727926728255
         0.00730534094086
         0.007331462176
         0.00735763108181
         0.0073838477524
         0.0074101122821
         0.00743642476547
         0.00746278529728
         0.00748919397247
         0.00751565088616
         0.00754215613362
         0.00756870981027
         0.00759531201163
         0.00762196283331
         0.00764866237103
         0.00767541072055
         0.0077022079777
         0.00772905423832
         0.00775594959827
         0.00778289415341
         0.00780988799958
         0.00783693123256
         0.0078640239481
         0.00789116624185
         0.00791835820939
         0.00794559994618
         0.00797289154754
         0.00800023310868
         0.0080276247246
         0.00805506649017
         0.00808255850004
         0.00811010084863
         0.00813769363016
         0.00816533693857
         0.00819303086757
         0.00822077551055
         0.00824857096062
         0.00827641731056
         0.00830431465282
         0.0083322630795
         0.00836026268231
         0.0083883135526
         0.00841641578128
         0.00844456945887
         0.00847277467543
         0.00850103152056
         0.00852934008339
         0.00855770045257
         0.0085861127162
         0.00861457696189
         0.00864309327669
         0.00867166174709
         0.00870028245899
         0.0087289554977
         0.00875768094792
         0.0087864588937
         0.00881528941846
         0.00884417260494
         0.00887310853519
         0.00890209729056
         0.0089311389517
         0.00896023359849
         0.00898938131008
         0.00901858216484
         0.00904783624033
         0.00907714361335
         0.00910650435982
         0.00913591855485
         0.00916538627269
         0.0091949075867
         0.00922448256936
         0.00925411129222
         0.00928379382591
         0.00931353024013
         0.00934332060357
         0.00937316498399
         0.00940306344811
         0.00943301606166
         0.00946302288933
         0.00949308399474
         0.00952319944047
         0.00955336928799
         0.00958359359767
         0.00961387242877
         0.0096442058394
         0.00967459388653
         0.00970503662592
         0.00973553411219
         0.0097660863987
         0.00979669353761
         0.00982735557985
         0.00985807257506
         0.00988884457161
         0.00991967161659
         0.00995055375575
         0.00998149103354
         0.010012483493
         0.010043531176
         0.0100746341226
         0.010105792372
         0.0101370059616
         0.0101682749275
         0.0101995993044
         0.0102309791253
         0.0102624144222
         0.0102939052254
         0.0103254515639
         0.0103570534653
         0.010388710956
         0.0104204240607
         0.0104521928032
         0.0104840172058
         0.0105158972896
         0.0105478330743
         0.0105798245784
         0.0106118718192
         0.0106439748129
         0.0106761335742
         0.010708348117
         0.0107406184536
         0.0107729445957
         0.0108053265533
         0.0108377643356
         0.0108702579507
         0.0109028074056
         0.0109354127061
         0.0109680738572
         0.0110007908626
         0.0110335637253
         0.0110663924469
         0.0110992770285
         0.0111322174698
         0.0111652137699
         0.0111982659267
         0.0112313739374
         0.0112645377982
         0.0112977575044
         0.0113310330506
         0.0113643644304
         0.0113977516366
         0.0114311946612
         0.0114646934955
         0.01149824813
         0.0115318585542
         0.0115655247573
         0.0115992467273
         0.011633024452
         0.0116668579181
         0.0117007471117
         0.0117346920185
         0.0117686926232
         0.0118027489102
         0.0118368608632
         0.0118710284651
         0.0119052516985
         0.0119395305454
         0.0119738649872
         0.0120082550048
         0.0120427005785
         0.0120772016884
         0.0121117583138
         0.0121463704337
         0.0121810380268
         0.0122157610711
         0.0122505395445
         0.0122853734243
         0.0123202626874
         0.0123552073106
         0.0123902072702
         0.0124252625422
         0.0124603731022
         0.0124955389258
         0.0125307599882
         0.0125660362641
         0.0126013677285
         0.0126367543556
         0.0126721961198
         0.0127076929953
         0.0127432449559
         0.0127788519755
         0.0128145140278
         0.0128502310863
         0.0128860031246
         0.0129218301159
         0.0129577120337
         0.0129936488512
         0.0130296405418
         0.0130656870786
         0.013101788435
         0.0131379445843
         0.0131741554998
         0.013210421155
         0.0132467415232
         0.0132831165781
         0.0133195462934
         0.0133560306429
         0.0133925696005
         0.0134291631404
         0.0134658112368
         0.0135025138643
         0.0135392709976
         0.0135760826116
         0.0136129486815
         0.0136498691827
         0.0136868440911
         0.0137238733825
         0.0137609570334
         0.0137980950205
         0.0138352873207
         0.0138725339114
         0.0139098347705
         0.0139471898761
         0.0139845992068
         0.0140220627416
         0.0140595804601
         0.014097152342
         0.014134778368
         0.0141724585188
         0.0142101927761
         0.0142479811216
         0.0142858235381
         0.0143237200085
         0.0143616705167
         0.0143996750468
         0.0144377335839
         0.0144758461135
         0.0145140126217
         0.0145522330955
         0.0145905075225
         0.014628835891
         0.0146672181898
         0.0147056544088
         0.0147441445383
         0.0147826885694
         0.0148212864939
         0.0148599383044
         0.014898643994
         0.0149374035567
         0.0149762169872
         0.0150150842807
         0.0150540054334
         0.015092980442
         0.0151320093039
         0.0151710920174
         0.0152102285813
         0.0152494189952
         0.0152886632594
         0.015327961375
         0.0153673133436
         0.0154067191676
         0.0154461788503
         0.0154856923954
         0.0155252598075
         0.0155648810918
         0.0156045562544
         0.0156442853019
         0.0156840682417
         0.0157239050819
         0.0157637958313
         0.0158037404994
         0.0158437390964
         0.0158837916334
         0.0159238981219
         0.0159640585742
         0.0160042730036
         0.0160445414237
         0.016084863849
         0.0161252402948
         0.0161656707769
         0.016206155312
         0.0162466939174
         0.0162872866112
         0.0163279334121
         0.0163686343396
         0.0164093894139
         0.0164501986558
         0.016491062087
         0.0165319797297
         0.0165729516071
         0.0166139777429
         0.0166550581615
         0.016696192888
         0.0167373819484
         0.0167786253693
         0.016819923178
         0.0168612754024
         0.0169026820714
         0.0169441432143
         0.0169856588613
         0.0170272290433
         0.017068853792
         0.0171105331395
         0.0171522671189
         0.017194055764
         0.0172358991091
         0.0172777971895
         0.017319750041
         0.0173617577002
         0.0174038202044
         0.0174459375916
         0.0174881099006
         0.0175303371708
         0.0175726194424
         0.0176149567562
         0.0176573491538
         0.0176997966776
         0.0177422993706
         0.0177848572765
         0.0178274704398
         0.0178701389057
         0.01791286272
         0.0179556419294
         0.0179984765811
         0.0180413667233
         0.0180843124047
         0.0181273136747
         0.0181703705836
         0.0182134831822
         0.0182566515223
         0.0182998756561
         0.0183431556366
         0.0183864915178
         0.018429883354
         0.0184733312006
         0.0185168351133
         0.018560395149
         0.0186040113649
         0.0186476838191
         0.0186914125705
         0.0187351976786
         0.0187790392037
         0.0188229372066
         0.0188668917491
         0.0189109028936
         0.0189549707032
         0.0189990952417
         0.0190432765738
         0.0190875147647
         0.0191318098803
         0.0191761619875
         0.0192205711537
         0.019265037447
         0.0193095609364
         0.0193541416913
         0.0193987797822
         0.0194434752801
         0.0194882282568
         0.0195330387848
         0.0195779069372
         0.0196228327879
         0.0196678164118
         0.0197128578841
         0.0197579572809
         0.019803114679
         0.019848330156
         0.0198936037902
         0.0199389356605
         0.0199843258466
         0.0200297744289
         0.0200752814884
         0.0201208471064
         0.0201664713651
         0.0202121543467
         0.0202578961341
         0.0203036968102
         0.0203495564584
         0.0203954751621
         0.0204414530048
         0.0204874900701
         0.0205335864417
         0.020579742203
         0.0206259574375
         0.0206722322283
         0.0207185666584
         0.0207649608104
         0.0208114147666
         0.0208579286087
         0.0209045024181
         0.0209511362755
         0.020997830261
         0.0210445844541
         0.0210913989335
         0.021138273777
         0.0211852090617
         0.0212322048637
         0.0212792612581
         0.0213263783189
         0.0213735561191
         0.0214207947305
         0.0214680942236
         0.0215154546676
         0.0215628761304
         0.0216103586786
         0.021657902377
         0.0217055072893
         0.0217531734771
         0.0218009010008
         0.0218486899187
         0.0218965402876
         0.0219444521624
         0.0219924255959
         0.0220404606392
         0.0220885573411
         0.0221367157485
         0.0221849359062
         0.0222332178567
         0.0222815616401
         0.0223299672943
         0.0223784348549
         0.0224269643549
         0.0224755558248
         0.0225242092925
         0.0225729247834
         0.02262170232
         0.0226705419222
         0.0227194436071
         0.0227684073887
         0.0228174332782
         0.0228665212839
         0.0229156714108
         0.022964883661
         0.0230141580333
         0.0230634945231
         0.0231128931228
         0.0231623538212
         0.0232118766037
         0.0232614614524
         0.0233111083455
         0.0233608172578
         0.0234105881605
         0.0234604210208
         0.0235103158024
         0.0235602724649
         0.0236102909641
         0.0236603712518
         0.0237105132757
         0.0237607169794
         0.0238109823024
         0.0238613091799
         0.0239116975429
         0.023962147318
         0.0240126584274
         0.0240632307888
         0.0241138643153
         0.0241645589156
         0.0242153144935
         0.0242661309483
         0.0243170081745
         0.0243679460615
         0.0244189444942
         0.0244700033522
         0.0245211225102
         0.0245723018379
         0.0246235411997
         0.024674840455
         0.0247261994577
         0.0247776180566
         0.0248290960948
         0.0248806334102
         0.0249322298353
         0.0249838851966
         0.0250355993154
         0.0250873720071
         0.0251392030813
         0.0251910923419
         0.0252430395868
         0.0252950446082
         0.025347107192
         0.0253992271182
         0.0254514041606
         0.025503638087
         0.0255559286587
         0.0256082756309
         0.0256606787522
         0.0257131377651
         0.0257656524054
         0.0258182224023
         0.0258708474785
         0.02592352735
         0.025976261726
         0.026029050309
         0.0260818927947
         0.0261347888717
         0.0261877382218
         0.0262407405195
         0.0262937954326
         0.0263469026217
         0.0264000617406
         0.0264532724367
         0.0265065343507
         0.026559847117
         0.0266132103637
         0.0266666237131
         0.0267200867815
         0.0267735991794
         0.0268271605119
         0.0268807703784
         0.0269344283733
         0.0269881340857
         0.0270418870998
         0.027095686995
         0.027149533346
         0.027203425723
         0.0272573636917
         0.0273113468139
         0.0273653746471
         0.0274194467448
         0.0274735626571
         0.0275277219302
         0.027581924107
         0.0276361687269
         0.0276904553265
         0.027744783439
         0.0277991525952
         0.0278535623228
         0.0279080121472
         0.0279625015914
         0.028017030176
         0.0280715974198
         0.0281262028393
         0.0281808459497
         0.0282355262641
         0.0282902432944
         0.0283449965511
         0.0283997855437
         0.0284546097803
         0.0285094687685
         0.0285643620151
         0.0286192890262
