looks/curve1_5.spi1d
Version 1
From 0.0 1.0
Length  4096
Components 1
{
         -6.84314020742e-20
         2.87344167527e-05
         5.7521917777e-05
         8.63627457699e-05
         0.000115257141096
         0.000144205341798
         0.000173207583615
         0.000202264099989
         0.000231375122087
         0.000260540878803
         0.000289761596783
         0.000319037500431
         0.000348368811922
         0.00037775575122
         0.000407198536088
         0.000436697382101
         0.000466252502662
         0.000495864109013
         0.000525532410248
         0.000555257613327
         0.000585039923091
         0.000614879542272
         0.00064477667151
         0.000674731509363
         0.000704744252321
         0.00073481509482
         0.000764944229258
         0.000795131846002
         0.000825378133405
         0.000855683277822
         0.000886047463618
         0.000916470873184
         0.000946953686949
         0.000977496083396
         0.00100809823907
         0.00103876032861
         0.00106948252471
         0.00110026499822
         0.00113110791807
         0.00116201145133
         0.00119297576323
         0.00122400101714
         0.00125508737462
         0.0012862349954
         0.00131744403741
         0.0013487146568
         0.00138004700794
         0.00141144124343
         0.00144289751415
         0.00147441596921
         0.00150599675601
         0.00153764002025
         0.00156934590594
         0.00160111455538
         0.00163294610923
         0.00166484070648
         0.00169679848448
         0.00172881957895
         0.00176090412401
         0.00179305225215
         0.00182526409429
         0.00185753977977
         0.00188987943637
         0.00192228319032
         0.00195475116631
         0.00198728348751
         0.00201988027558
         0.00205254165068
         0.00208526773151
         0.00211805863527
         0.00215091447772
         0.00218383537317
         0.00221682143451
         0.00224987277321
         0.00228298949934
         0.00231617172157
         0.00234941954719
         0.00238273308216
         0.00241611243104
         0.00244955769711
         0.00248306898228
         0.00251664638717
         0.0025502900111
         0.00258399995212
         0.00261777630698
         0.00265161917121
         0.00268552863906
         0.00271950480359
         0.0027535477566
         0.00278765758871
         0.00282183438936
         0.00285607824679
         0.00289038924809
         0.0029247674792
         0.00295921302492
         0.00299372596891
         0.00302830639376
         0.00306295438091
         0.00309767001077
         0.00313245336264
         0.00316730451478
         0.00320222354439
         0.00323721052767
         0.00327226553977
         0.00330738865486
         0.0033425799461
         0.00337783948569
         0.00341316734485
         0.00344856359385
         0.00348402830204
         0.00351956153783
         0.00355516336873
         0.00359083386132
         0.00362657308135
         0.00366238109365
         0.00369825796222
         0.0037342037502
         0.00377021851991
         0.00380630233284
         0.00384245524969
         0.00387867733036
         0.00391496863397
         0.00395132921887
         0.00398775914268
         0.00402425846225
         0.00406082723374
         0.00409746551257
         0.00413417335347
         0.0041709508105
         0.00420779793702
         0.00424471478575
         0.00428170140877
         0.00431875785751
         0.00435588418279
         0.00439308043483
         0.00443034666324
         0.00446768291708
         0.00450508924482
         0.00454256569439
         0.00458011231317
         0.00461772914803
         0.00465541624531
         0.00469317365086
         0.00473100141005
         0.00476889956777
         0.00480686816845
         0.00484490725607
         0.00488301687419
         0.00492119706595
         0.00495944787406
         0.00499776934087
         0.00503616150833
         0.00507462441803
         0.00511315811121
         0.00515176262876
         0.00519043801125
         0.00522918429895
         0.0052680015318
         0.00530688974948
         0.00534584899138
         0.00538487929666
         0.00542398070418
         0.00546315325262
         0.00550239698041
         0.00554171192579
         0.00558109812678
         0.00562055562126
         0.0056600844469
         0.00569968464124
         0.00573935624169
         0.00577909928552
         0.00581891380987
         0.0058587998518
         0.00589875744829
         0.00593878663622
         0.00597888745244
         0.00601905993372
         0.00605930411683
         0.00609962003849
         0.00614000773543
         0.00618046724438
         0.00622099860209
         0.00626160184534
         0.00630227701096
         0.00634302413584
         0.00638384325693
         0.00642473441129
         0.00646569763606
         0.00650673296849
         0.00654784044597
         0.00658902010601
         0.00663027198629
         0.00667159612465
         0.00671299255911
         0.00675446132787
         0.00679600246935
         0.00683761602218
         0.00687930202523
         0.0069210605176
         0.00696289153866
         0.00700479512806
         0.00704677132572
         0.00708882017186
         0.00713094170702
         0.00717313597206
         0.00721540300817
         0.0072577428569
         0.00730015556018
         0.00734264116028
         0.0073851996999
         0.00742783122212
         0.00747053577044
         0.00751331338882
         0.00755616412162
         0.00759908801368
         0.00764208511033
         0.00768515545734
         0.00772829910102
         0.00777151608817
         0.00781480646611
         0.00785817028272
         0.0079016075864
         0.00794511842614
         0.0079887028515
         0.00803236091262
         0.00807609266025
         0.00811989814577
         0.00816377742118
         0.00820773053911
         0.00825175755288
         0.00829585851644
         0.00834003348447
         0.0083842825123
         0.00842860565601
         0.00847300297237
         0.00851747451892
         0.00856202035392
         0.00860664053641
         0.0086513351262
         0.00869610418391
         0.00874094777093
         0.00878586594948
         0.00883085878263
         0.00887592633427
         0.00892106866914
         0.00896628585288
         0.00901157795199
         0.00905694503388
         0.00910238716684
         0.00914790442013
         0.0091934968639
         0.00923916456929
         0.00928490760837
         0.0093307260542
         0.00937661998084
         0.00942258946333
         0.00946863457774
         0.00951475540118
         0.00956095201177
         0.00960722448871
         0.00965357291227
         0.0096999973638
         0.00974649792573
         0.00979307468163
         0.00983972771615
         0.00988645711512
         0.00993326296549
         0.00998014535539
         0.0100271043741
         0.0100741401121
         0.0101212526611
         0.010168442114
         0.0102157085649
         0.0102630521092
         0.0103104728436
         0.0103579708658
         0.0104055462752
         0.0104531991721
         0.0105009296584
         0.0105487378371
         0.0105966238128
         0.0106445876911
         0.0106926295792
         0.0107407495857
         0.0107889478205
         0.0108372243948
         0.0108855794215
         0.0109340130146
         0.0109825252897
         0.0110311163639
         0.0110797863554
         0.0111285353839
         0.0111773635703
         0.0112262710369
         0.0112752579068
         0.0113243243046
         0.0113734703558
         0.0114226961871
         0.0114720019262
         0.0115213877015
         0.0115708536427
         0.0116203998801
         0.0116700265451
         0.0117197337696
         0.0117695216866
         0.0118193904295
         0.0118693401325
         0.0119193709305
         0.0119694829588
         0.0120196763534
         0.0120699512508
         0.0121203077878
         0.0121707461018
         0.0122212663305
         0.0122718686118
         0.0123225530841
         0.0123733198859
         0.0124241691559
         0.0124751010331
         0.0125261156564
         0.012577213165
         0.0126283936978
         0.0126796573941
         0.0127310043927
         0.0127824348328
         0.0128339488529
         0.0128855465918
         0.0129372281878
         0.012988993779
         0.0130408435031
         0.0130927774976
         0.0131447958994
         0.0131968988453
         0.0132490864712
         0.0133013589126
         0.0133537163047
         0.0134061587816
         0.0134586864772
         0.0135112995245
         0.0135639980557
         0.0136167822022
         0.0136696520947
         0.0137226078631
         0.0137756496361
         0.0138287775416
         0.0138819917065
         0.0139352922567
         0.0139886793169
         0.0140421530108
         0.0140957134608
         0.0141493607881
         0.0142030951128
         0.0142569165536
         0.0143108252277
         0.0143648212511
         0.0144189047383
         0.0144730758024
         0.0145273345549
         0.0145816811058
         0.0146361155635
         0.0146906380346
         0.0147452486242
         0.0147999474356
         0.0148547345704
         0.0149096101283
         0.0149645742071
         0.0150196269028
         0.0150747683095
         0.015129998519
         0.0151853176215
         0.0152407257049
         0.0152962228549
         0.0153518091552
         0.0154074846873
         0.0154632495304
         0.0155191037613
         0.0155750474547
         0.0156310806828
         0.0156872035154
         0.0157434160198
         0.0157997182609
         0.0158561103009
         0.0159125921995
         0.0159691640139
         0.0160258257986
         0.0160825776055
         0.016139419484
         0.0161963514812
         0.0162533736416
         0.0163104860073
         0.0163676886181
         0.0164249815117
         0.0164823647231
         0.0165398382855
         0.0165974022296
         0.0166550565841
         0.0167128013756
         0.0167706366286
         0.0168285623655
         0.0168865786069
         0.0169446853714
         0.0170028826754
         0.017061170534
         0.0171195489599
         0.0171780179643
         0.0172365775568
         0.0172952277449
         0.0173539685348
         0.017412799931
         0.0174717219361
         0.0175307345517
         0.0175898377774
         0.0176490316117
         0.0177083160514
         0.0177676910922
         0.0178271567281
         0.0178867129522
         0.017946359756
         0.0180060971301
         0.0180659250635
         0.0181258435445
         0.0181858525601
         0.0182459520961
         0.0183061421376
         0.0183664226684
         0.0184267936717
         0.0184872551294
         0.0185478070229
         0.0186084493327
         0.0186691820383
         0.0187300051187
         0.0187909185522
         0.0188519223163
         0.0189130163879
         0.0189742007436
         0.019035475359
         0.0190968402096
         0.0191582952704
         0.0192198405156
         0.0192814759196
         0.0193432014561
         0.0194050170985
         0.0194669228201
         0.0195289185939
         0.0195910043927
         0.0196531801894
         0.0197154459565
         0.0197778016665
         0.0198402472922
         0.0199027828059
         0.0199654081805
         0.0200281233887
         0.0200909284034
         0.0201538231977
         0.020216807745
         0.0202798820189
         0.0203430459933
         0.0204062996424
         0.0204696429411
         0.0205330758643
         0.0205965983876
         0.0206602104872
         0.0207239121396
         0.0207877033221
         0.0208515840127
         0.0209155541897
         0.0209796138325
         0.021043762921
         0.0211080014361
         0.0211723293595
         0.0212367466736
         0.0213012533619
         0.0213658494087
         0.0214305347994
         0.0214953095206
         0.0215601735595
         0.021625126905
         0.0216901695466
         0.0217553014755
         0.0218205226838
         0.0218858331649
         0.0219512329136
         0.0220167219256
         0.0220823001981
         0.0221479677294
         0.0222137245191
         0.022279570568
         0.022345505878
         0.0224115304524
         0.0224776442955
         0.0225438474128
         0.0226101398113
         0.0226765214989
         0.0227429924847
         0.0228095527792
         0.0228762023938
         0.0229429413414
         0.0230097696358
         0.0230766872921
         0.0231436943265
         0.0232107907565
         0.0232779766007
         0.0233452518787
         0.0234126166116
         0.0234800708214
         0.0235476145313
         0.0236152477656
         0.0236829705498
         0.0237507829107
         0.0238186848759
         0.0238866764744
         0.0239547577363
         0.0240229286927
         0.0240911893758
         0.0241595398192
         0.0242279800574
         0.024296510126
         0.0243651300618
         0.0244338399027
         0.0245026396876
         0.0245715294566
         0.0246405092508
         0.0247095791127
         0.0247787390854
         0.0248479892135
         0.0249173295425
         0.024986760119
         0.0250562809906
         0.0251258922063
         0.0251955938157
         0.0252653858698
         0.0253352684206
         0.025405241521
         0.0254753052252
         0.0255454595884
         0.0256157046666
         0.0256860405172
         0.0257564671983
         0.0258269847694
         0.0258975932909
         0.025968292824
         0.0260390834312
         0.026109965176
         0.0261809381228
         0.0262520023372
         0.0263231578856
         0.0263944048357
         0.0264657432558
         0.0265371732156
         0.0266086947857
         0.0266803080375
         0.0267520130436
         0.0268238098776
         0.026895698614
         0.0269676793283
         0.027039752097
         0.0271119169977
         0.0271841741087
         0.0272565235095
         0.0273289652805
         0.0274014995031
         0.0274741262597
         0.0275468456334
         0.0276196577087
         0.0276925625706
         0.0277655603054
         0.0278386510001
         0.0279118347429
         0.0279851116227
         0.0280584817294
         0.0281319451539
         0.0282055019879
         0.0282791523243
         0.0283528962567
         0.0284267338796
         0.0285006652883
         0.028574690579
         0.0286488098484
         0.0287230231938
         0.0287973307131
         0.0288717325041
         0.0289462286655
         0.0290208192957
         0.0290955044933
         0.029170284357
         0.0292451589854
         0.0293201284768
         0.0293951929291
         0.0294703524401
         0.029545607107
         0.0296209570265
         0.0296964022943
         0.0297719430059
         0.0298475792554
         0.0299233111365
         0.0299991387414
         0.0300750621614
         0.0301510814866
         0.0302271968057
         0.0303034082061
         0.0303797157736
         0.0304561195924
         0.0305326197451
         0.0306092163125
         0.0306859093735
         0.030762699005
         0.0308395852821
         0.0309165682773
         0.0309936480613
         0.0310708247023
         0.0311480982658
         0.0312254688153
         0.0313029364113
         0.0313805011118
         0.0314581629718
         0.0315359220436
         0.0316137783764
         0.0316917320163
         0.0317697830065
         0.0318479313865
         0.0319261771927
         0.0320045204582
         0.0320829612122
         0.0321614994804
         0.032240135285
         0.0323188686441
         0.032397699572
         0.0324766280788
         0.0325556541709
         0.0326347778502
         0.0327139991143
         0.0327933179566
         0.0328727343659
         0.0329522483265
         0.0330318598179
         0.0331115688151
         0.033191375288
         0.0332712792018
         0.0333512805164
         0.0334313791869
         0.0335115751628
         0.0335918683886
         0.0336722588034
         0.0337527463405
         0.0338333309279
         0.0339140124879
         0.0339947909368
         0.0340756661853
         0.034156638138
         0.0342377066934
         0.0343188717441
         0.0344001331761
         0.0344814908694
         0.0345629446973
         0.0346444945268
         0.0347261402182
         0.034807881625
         0.0348897185942
         0.0349716509655
         0.0350536785719
         0.0351358012392
         0.0352180187862
         0.0353003310242
         0.0353827377573
         0.0354652387822
         0.0355478338878
         0.0356305228557
         0.0357133054595
         0.0357961814652
         0.0358791506307
         0.0359622127065
         0.0360453674355
         0.0361286145533
         0.0362119537886
         0.0362953848631
         0.0363789074922
         0.0364625213848
         0.0365462262437
         0.0366300217657
         0.036713907642
         0.0367978835585
         0.0368819491956
         0.0369661042288
         0.0370503483288
         0.0371346811619
         0.0372191023897
         0.03730361167
         0.0373882086565
         0.0374728929995
         0.0375576643455
         0.037642522338
         0.0377274666175
         0.0378124968216
         0.0378976125855
         0.0379828135418
         0.0380680993214
         0.038153469553
         0.0382389238636
         0.038324461879
         0.0384100832237
         0.0384957875211
         0.0385815743939
         0.0386674434644
         0.0387533943542
         0.0388394266851
         0.0389255400791
         0.0390117341583
         0.0390980085455
         0.0391843628642
         0.039270796739
         0.0393573097958
         0.0394439016619
         0.0395305719661
         0.0396173203394
         0.0397041464148
         0.0397910498277
         0.039878030216
         0.0399650872204
         0.0400522204847
         0.040139429656
         0.0402267143847
         0.0403140743251
         0.0404015091351
         0.0404890184772
         0.0405766020178
         0.0406642594282
         0.0407519903843
         0.0408397945673
         0.0409276716635
         0.0410156213645
         0.0411036433679
         0.0411917373772
         0.0412799031018
         0.0413681402577
         0.0414564485675
         0.0415448277604
         0.041633277573
         0.0417217977488
         0.041810388039
         0.0418990482024
         0.0419877780059
         0.0420765772245
         0.0421654456414
         0.0422543830487
         0.042343389247
         0.0424324640463
         0.0425216072656
         0.0426108187335
         0.0427000982884
         0.0427894457786
         0.0428788610624
         0.0429683440087
         0.043057894497
         0.0431475124175
         0.0432371976716
         0.043326950172
         0.0434167698427
         0.0435066566196
         0.0435966104505
         0.0436866312956
         0.043776719127
         0.04386687393
         0.0439570957023
         0.0440473844549
         0.044137740212
         0.0442281630113
         0.0443186529037
         0.0444092099533
         0.044499834237
         0.0445905258444
         0.0446812848774
         0.0447721114506
         0.04486300569
         0.0449539677339
         0.045044997732
         0.0451360958454
         0.0452272622465
         0.0453184971186
         0.0454098006556
         0.0455011730622
         0.0455926145532
         0.0456841253538
         0.0457757056989
         0.045867355833
         0.0459590760103
         0.0460508664943
         0.0461427275573
         0.0462346594806
         0.0463266625542
         0.0464187370765
         0.0465108833539
         0.0466031017009
         0.0466953924401
         0.0467877559012
         0.0468801924215
         0.0469727023454
         0.0470652860243
         0.0471579438162
         0.0472506760857
         0.0473434832036
         0.047436365547
         0.0475293234986
         0.047622357447
         0.0477154677861
         0.0478086549149
         0.0479019192379
         0.0479952611638
         0.0480886811064
         0.0481821794836
         0.0482757567176
         0.0483694132345
         0.0484631494642
         0.0485569658401
         0.0486508627989
         0.0487448407804
         0.0488389002275
         0.0489330415855
         0.0490272653023
         0.0491215718281
         0.0492159616151
         0.0493104351174
         0.0494049927906
         0.0494996350919
         0.0495943624796
         0.0496891754128
         0.0497840743517
         0.0498790597569
         0.0499741320893
         0.0500692918102
         0.0501645393804
         0.0502598752608
         0.0503552999116
         0.0504508137923
         0.0505464173616
         0.050642111077
         0.0507378953946
         0.0508337707689
         0.0509297376528
         0.0510257964971
         0.0511219477504
         0.0512181918589
         0.0513145292663
         0.0514109604132
         0.0515074857374
         0.0516041056733
         0.0517008206519
         0.0517976311006
         0.0518945374427
         0.0519915400974
         0.0520886394799
         0.0521858360004
         0.0522831300648
         0.0523805220737
         0.0524780124227
         0.052575601502
         0.0526732896962
         0.0527710773841
         0.0528689649384
         0.0529669527257
         0.053065041106
         0.0531632304329
         0.0532615210534
         0.0533599133079
         0.0534584075307
         0.0535570040498
         0.0536557031871
         0.0537545052586
         0.0538534105743
         0.0539524194386
         0.0540515321501
         0.0541507490019
         0.0542500702818
         0.0543494962723
         0.0544490272504
         0.0545486634884
         0.0546484052534
         0.0547482528078
         0.0548482064092
         0.0549482663104
         0.0550484327599
         0.0551487060018
         0.0552490862757
         0.0553495738172
         0.0554501688579
         0.0555508716252
         0.0556516823428
         0.0557526012307
         0.0558536285053
         0.0559547643793
         0.0560560090622
         0.0561573627602
         0.0562588256762
         0.0563603980103
         0.0564620799594
         0.0565638717177
         0.0566657734767
         0.0567677854251
         0.0568699077495
         0.0569721406337
         0.0570744842595
         0.0571769388064
         0.057279504452
         0.0573821813718
         0.0574849697397
         0.0575878697277
         0.0576908815063
         0.0577940052445
         0.05789724111
         0.0580005892691
         0.0581040498871
         0.0582076231282
         0.0583113091557
         0.0584151081321
         0.0585190202192
         0.0586230455783
         0.0587271843702
         0.0588314367551
         0.0589358028934
         0.0590402829451
         0.0591448770701
         0.0592495854287
         0.0593544081812
         0.0594593454882
         0.0595643975109
         0.0596695644109
         0.0597748463504
         0.0598802434927
         0.0599857560016
         0.0600913840421
         0.0601971277804
         0.0603029873836
         0.0604089630205
         0.0605150548611
         0.0606212630771
         0.0607275878418
         0.0608340293303
         0.0609405877196
         0.0610472631888
         0.0611540559189
         0.0612609660934
         0.0613679938979
         0.0614751395207
         0.0615824031526
         0.0616897849869
         0.06179728522
         0.061904904051
         0.062012641682
         0.0621204983185
         0.0622284741689
