looks/curve2_25.spi1d
Version 1
From 0.0 1.0
Length  4096
Components 1
{
         -1.09170840599e-20
         1.48566907344e-05
         2.97420758822e-05
         4.46564492126e-05
         5.96001019227e-05
         7.45733226495e-05
         8.95763974824e-05
         0.000104609609975
         0.000119673241158
         0.000134767569549
         0.00014989287117
         0.000165049419552
         0.000180237485753
         0.000195457338369
         0.000210709243545
         0.000225993464987
         0.000241310263976
         0.000256659899377
         0.000272042627656
         0.000287458702886
         0.000302908376766
         0.000318391898626
         0.000333909515446
         0.000349461471863
         0.000365048010186
         0.000380669370406
         0.000396325790212
         0.000412017504997
         0.000427744747877
         0.000443507749698
         0.000459306739051
         0.000475141942283
         0.000491013583508
         0.000506921884624
         0.000522867065318
         0.000538849343083
         0.000554868933231
         0.000570926048901
         0.000587020901074
         0.000603153698584
         0.000619324648131
         0.000635533954294
         0.000651781819541
         0.000668068444242
         0.00068439402668
         0.000700758763068
         0.000717162847555
         0.000733606472241
         0.000750089827189
         0.000766613100438
         0.000783176478015
         0.000799780143943
         0.00081642428026
         0.000833109067026
         0.000849834682338
         0.000866601302341
         0.000883409101239
         0.000900258251309
         0.000917148922914
         0.000934081284511
         0.000951055502669
         0.000968071742075
         0.000985130165551
         0.00100223093407
         0.00101937420674
         0.00103656014087
         0.00105378889194
         0.0010710606136
         0.00108837545775
         0.00110573357446
         0.00112313511208
         0.00114058021716
         0.00115806903453
         0.00117560170728
         0.00119317837678
         0.00121079918268
         0.00122846426295
         0.00124617375387
         0.00126392779005
         0.00128172650443
         0.00129957002831
         0.00131745849136
         0.00133539202161
         0.00135337074549
         0.00137139478784
         0.00138946427189
         0.0014075793193
         0.00142574005019
         0.00144394658311
         0.00146219903507
         0.00148049752157
         0.00149884215656
         0.00151723305254
         0.00153567032047
         0.00155415406987
         0.00157268440878
         0.00159126144378
         0.00160988528002
         0.0016285560212
         0.00164727376964
         0.00166603862623
         0.00168485069047
         0.00170371006047
         0.001722616833
         0.00174157110345
         0.00176057296588
         0.001779622513
         0.00179871983622
         0.00181786502563
         0.00183705817004
         0.00185629935696
         0.00187558867263
         0.00189492620204
         0.00191431202893
         0.00193374623582
         0.00195322890397
         0.00197276011347
         0.00199233994318
         0.00201196847081
         0.00203164577286
         0.0020513719247
         0.00207114700051
         0.00209097107338
         0.00211084421525
         0.00213076649694
         0.00215073798819
         0.00217075875763
         0.00219082887284
         0.0022109484003
         0.00223111740548
         0.00225133595278
         0.00227160410557
         0.00229192192623
         0.00231228947611
         0.0023327068156
         0.00235317400407
         0.00237369109995
         0.00239425816072
         0.0024148752429
         0.00243554240208
         0.00245625969295
         0.00247702716928
         0.00249784488395
         0.00251871288895
         0.00253963123541
         0.0025605999736
         0.00258161915294
         0.00260268882204
         0.00262380902864
         0.00264497981973
         0.00266620124146
         0.00268747333921
         0.0027087961576
         0.00273016974046
         0.0027515941309
         0.00277306937128
         0.00279459550325
         0.00281617256772
         0.00283780060494
         0.00285947965444
         0.00288120975509
         0.00290299094509
         0.002924823262
         0.00294670674273
         0.00296864142357
         0.0029906273402
         0.00301266452768
         0.0030347530205
         0.00305689285256
         0.00307908405721
         0.00310132666722
         0.00312362071484
         0.00314596623179
         0.00316836324927
         0.00319081179795
         0.00321331190806
         0.0032358636093
         0.00325846693094
         0.00328112190175
         0.0033038285501
         0.00332658690391
         0.00334939699067
         0.00337225883748
         0.00339517247104
         0.00341813791765
         0.00344115520327
         0.00346422435347
         0.00348734539349
         0.00351051834824
         0.00353374324229
         0.00355702009992
         0.0035803489451
         0.00360372980151
         0.00362716269257
         0.00365064764142
         0.00367418467097
         0.00369777380389
         0.0037214150626
         0.00374510846934
         0.00376885404613
         0.00379265181481
         0.00381650179704
         0.00384040401431
         0.00386435848797
         0.00388836523922
         0.00391242428913
         0.00393653565868
         0.0039606993687
         0.00398491543998
         0.00400918389319
         0.00403350474895
         0.00405787802783
         0.00408230375035
         0.004106781937
         0.00413131260826
         0.00415589578458
         0.00418053148644
         0.00420521973433
         0.00422996054878
         0.00425475395034
         0.00427959995963
         0.00430449859734
         0.00432944988423
         0.00435445384116
         0.00437951048907
         0.00440461984905
         0.0044297819423
         0.00445499679015
         0.0044802644141
         0.0045055848358
         0.00453095807708
         0.00455638415998
         0.0045818631067
         0.00460739493968
         0.00463297968158
         0.00465861735529
         0.00468430798397
         0.00471005159101
         0.00473584820009
         0.00476169783518
         0.00478760052055
         0.00481355628077
         0.00483956514072
         0.00486562712565
         0.00489174226112
         0.00491791057307
         0.0049441320878
         0.00497040683201
         0.00499673483278
         0.00502311611759
         0.00504955071436
         0.00507603865142
         0.00510257995757
         0.00512917466204
         0.00515582279454
         0.00518252438526
         0.00520927946488
         0.00523608806459
         0.0052629502161
         0.00528986595162
         0.00531683530394
         0.00534385830638
         0.00537093499283
         0.00539806539776
         0.00542524955623
         0.00545248750389
         0.00547977927703
         0.00550712491254
         0.00553452444796
         0.00556197792147
         0.00558948537194
         0.00561704683888
         0.00564466236251
         0.00567233198374
         0.0057000557442
         0.00572783368622
         0.0057556658529
         0.00578355228807
         0.00581149303631
         0.00583948814298
         0.00586753765423
         0.00589564161701
         0.00592380007907
         0.00595201308897
         0.00598028069612
         0.00600860295078
         0.00603697990404
         0.00606541160789
         0.00609389811518
         0.00612243947967
         0.00615103575601
         0.00617968699977
         0.00620839326747
         0.00623715461654
         0.0062659711054
         0.00629484279341
         0.00632376974091
         0.00635275200926
         0.00638178966078
         0.00641088275883
         0.00644003136781
         0.00646923555312
         0.00649849538126
         0.00652781091975
         0.00655718223722
         0.00658660940337
         0.006616092489
         0.00664563156602
         0.00667522670749
         0.00670487798757
         0.0067345854816
         0.00676434926607
         0.00679416941863
         0.00682404601813
         0.00685397914463
         0.00688396887936
         0.00691401530482
         0.00694411850471
         0.00697427856399
         0.00700449556887
         0.00703476960685
         0.00706510076668
         0.00709548913844
         0.0071259348135
         0.00715643788455
         0.0071869984456
         0.00721761659203
         0.00724829242056
         0.00727902602927
         0.00730981751764
         0.00734066698652
         0.00737157453819
         0.00740254027633
         0.00743356430604
         0.00746464673388
         0.00749578766786
         0.00752698721745
         0.00755824549358
         0.00758956260871
         0.00762093867677
         0.00765237381322
         0.00768386813502
         0.00771542176071
         0.00774703481034
         0.00777870740556
         0.00781043966955
         0.00784223172712
         0.00787408370463
         0.00790599573004
         0.0079379679328
         0.00797000044384
         0.00800209339557
         0.00803424692176
         0.00806646115758
         0.00809873623951
         0.00813107230533
         0.00816346949407
         0.00819592794595
         0.00822844780239
         0.00826102920593
         0.00829367230021
         0.00832637722994
         0.00835914414081
         0.00839197317952
         0.0084248644937
         0.0084578182319
         0.00849083454351
         0.00852391357874
         0.0085570554886
         0.00859026042486
         0.00862352853996
         0.00865685998705
         0.00869025491987
         0.00872371349279
         0.00875723586071
         0.00879082217905
         0.0088244726037
         0.008858187291
         0.00889196639767
         0.00892581008081
         0.00895971849782
         0.0089936918064
         0.00902773016448
         0.0090618337302
         0.00909600266186
         0.0091302371179
         0.00916453725683
         0.00919890323722
         0.00923333521764
         0.00926783335666
         0.00930239781276
         0.0093370287443
         0.00937172630953
         0.0094064906665
         0.00944132197303
         0.00947622038669
         0.00951118606475
         0.00954621916414
         0.00958131984142
         0.00961648825272
         0.00965172455372
         0.00968702889962
         0.00972240144507
         0.00975784234417
         0.00979335175039
         0.00982892981655
         0.00986457669482
         0.00990029253659
         0.00993607749253
         0.00997193171249
         0.0100078553455
         0.0100438485396
         0.0100799114421
         0.0101160441993
         0.0101522469562
         0.0101885198573
         0.0102248630456
         0.0102612766632
         0.010297760851
         0.0103343157485
         0.0103709414944
         0.0104076382257
         0.0104444060785
         0.0104812451871
         0.0105181556848
         0.0105551377033
         0.0105921913729
         0.0106293168224
         0.0106665141789
         0.0107037835682
         0.0107411251142
         0.0107785389394
         0.0108160251644
         0.0108535839082
         0.010891215288
         0.0109289194192
         0.0109666964152
         0.0110045463878
         0.0110424694465
         0.0110804656993
         0.0111185352518
         0.0111566782076
         0.0111948946685
         0.0112331847339
         0.0112715485012
         0.0113099860655
         0.0113484975197
         0.0113870829544
         0.0114257424579
         0.0114644761162
         0.011503284013
         0.0115421662292
         0.0115811228436
         0.0116201539324
         0.0116592595691
         0.0116984398248
         0.0117376947679
         0.0117770244641
         0.0118164289766
         0.0118559083655
         0.0118954626884
         0.0119350920001
         0.0119747963523
         0.0120145757941
         0.0120544303715
         0.0120943601279
         0.0121343651037
         0.0121744453368
         0.0122146008621
         0.012254831712
         0.0122951379162
         0.012335519502
         0.0123759764937
         0.0124165089135
         0.0124571167808
         0.0124978001127
         0.0125385589239
         0.0125793932266
         0.0126203030307
         0.0126612883438
         0.0127023491712
         0.012743485516
         0.012784697379
         0.0128259847589
         0.0128673476523
         0.0129087860536
         0.0129502999552
         0.0129918893476
         0.0130335542191
         0.0130752945561
         0.0131171103432
         0.013159001563
         0.0132009681963
         0.0132430102221
         0.0132851276176
         0.0133273203582
         0.0133695884179
         0.0134119317687
         0.0134543503812
         0.0134968442241
         0.013539413265
         0.0135820574696
         0.0136247768023
         0.0136675712261
         0.0137104407024
         0.0137533851914
         0.0137964046519
         0.0138394990414
         0.0138826683162
         0.0139259124312
         0.0139692313404
         0.0140126249963
         0.0140560933506
         0.0140996363537
         0.014143253955
         0.0141869461031
         0.0142307127453
         0.0142745538281
         0.0143184692973
         0.0143624590974
         0.0144065231725
         0.0144506614658
         0.0144948739195
         0.0145391604754
         0.0145835210744
         0.0146279556569
         0.0146724641625
         0.0147170465306
         0.0147617026996
         0.0148064326077
         0.0148512361926
         0.0148961133915
         0.0149410641412
         0.0149860883781
         0.0150311860386
         0.0150763570583
         0.0151216013731
         0.0151669189182
         0.015212309629
         0.0152577734405
         0.0153033102878
         0.0153489201058
         0.0153946028294
         0.0154403583935
         0.0154861867332
         0.0155320877834
         0.0155780614793
         0.0156241077563
         0.0156702265498
         0.0157164177956
         0.0157626814297
         0.0158090173883
         0.0158554256081
         0.0159019060261
         0.0159484585797
         0.0159950832066
         0.0160417798453
         0.0160885484346
         0.0161353889139
         0.0161823012231
         0.0162292853029
         0.0162763410945
         0.0163234685399
         0.0163706675818
         0.0164179381636
         0.0164652802296
         0.0165126937249
         0.0165601785956
         0.0166077347884
         0.0166553622513
         0.0167030609332
         0.0167508307838
         0.0167986717541
         0.0168465837961
         0.0168945668631
         0.0169426209092
         0.0169907458901
         0.0170389417624
         0.0170872084843
         0.0171355460151
         0.0171839543153
         0.0172324333468
         0.0172809830727
         0.0173296034574
         0.0173782944666
         0.0174270560672
         0.0174758882273
         0.0175247909164
         0.0175737641052
         0.0176228077656
         0.0176719218709
         0.0177211063954
         0.0177703613149
         0.0178196866062
         0.0178690822477
         0.0179185482186
         0.0179680844996
         0.0180176910727
         0.0180673679209
         0.0181171150286
         0.0181669323814
         0.0182168199661
         0.0182667777707
         0.0183168057844
         0.0183669039979
         0.0184170724026
         0.0184673109916
         0.018517619759
         0.0185679987001
         0.0186184478115
         0.0186689670908
         0.0187195565371
         0.0187702161505
         0.0188209459323
         0.0188717458852
         0.0189226160128
         0.0189735563201
         0.0190245668133
         0.0190756474996
         0.0191267983875
         0.0191780194868
         0.0192293108084
         0.0192806723642
         0.0193321041676
         0.0193836062328
         0.0194351785756
         0.0194868212127
         0.0195385341619
         0.0195903174424
         0.0196421710745
         0.0196940950795
         0.01974608948
         0.0197981542998
         0.0198502895637
         0.0199024952978
         0.0199547715293
         0.0200071182866
         0.020059535599
         0.0201120234974
         0.0201645820133
         0.0202172111798
         0.020269911031
         0.0203226816019
         0.020375522929
         0.0204284350497
         0.0204814180025
         0.0205344718272
         0.0205875965647
         0.0206407922569
         0.0206940589468
         0.0207473966787
         0.0208008054979
         0.0208542854508
         0.0209078365849
         0.020961458949
         0.0210151525927
         0.021068917567
         0.0211227539237
         0.0211766617161
         0.0212306409981
         0.0212846918251
         0.0213388142534
         0.0213930083406
         0.021447274145
         0.0215016117263
         0.0215560211453
         0.0216105024638
         0.0216650557445
         0.0217196810515
         0.0217743784497
         0.0218291480053
         0.0218839897854
         0.0219389038583
         0.0219938902933
         0.0220489491607
         0.022104080532
         0.0221592844797
         0.0222145610773
         0.0222699103995
         0.0223253325219
         0.0223808275211
         0.0224363954751
         0.0224920364625
         0.0225477505633
         0.0226035378583
         0.0226593984295
         0.0227153323599
         0.0227713397335
         0.0228274206353
         0.0228835751514
         0.0229398033689
         0.0229961053759
         0.0230524812617
         0.0231089311164
         0.023165455031
         0.0232220530975
         0.0232787254086
         0.0233354720576
         0.0233922931384
         0.0234491887453
         0.0235061589729
         0.0235632039164
         0.0236203236708
         0.0236775183314
         0.0237347879934
         0.023792132752
         0.0238495527021
         0.0239070479385
         0.0239646185553
         0.0240222646464
         0.024079986305
         0.0241377836238
         0.0241956566945
         0.0242536056082
         0.0243116304548
         0.0243697313234
         0.0244279083019
         0.0244861614769
         0.0245444909338
         0.0246028967564
         0.0246613790273
         0.0247199378272
         0.0247785732354
         0.0248372853291
         0.0248960741839
         0.0249549398733
         0.0250138824687
         0.0250729020395
         0.0251319986526
         0.0251911723729
         0.0252504232625
         0.0253097513811
         0.025369156786
         0.0254286395315
         0.0254881996692
         0.0255478372478
         0.0256075523129
         0.0256673449071
         0.0257272150699
         0.0257871628373
         0.0258471882421
         0.0259072913137
         0.0259674720776
         0.026027730556
         0.0260880667673
         0.0261484807259
         0.0262089724423
         0.0262695419231
         0.0263301891707
         0.0263909141832
         0.0264517169547
         0.0265125974744
         0.0265735557275
         0.0266345916943
         0.0266957053506
         0.0267568966673
         0.0268181656104
         0.026879512141
         0.0269409362153
         0.0270024377841
         0.0270640167932
         0.0271256731827
         0.0271874068876
         0.0272492178373
         0.0273111059556
         0.0273730711604
         0.0274351133641
         0.0274972324729
         0.0275594283873
         0.0276217010014
         0.0276840502035
         0.0277464758752
         0.0278089778921
         0.0278715561231
         0.0279342104307
         0.0279969406706
         0.0280597466921
         0.0281226283372
         0.0281855854412
         0.0282486178325
         0.0283117253322
         0.0283749077543
         0.0284381649053
         0.0285014965847
         0.0285649025842
         0.0286283826879
         0.0286919366723
         0.0287555643064
         0.0288192653508
         0.0288830395586
         0.0289468866747
         0.0290108064357
         0.0290747985703
         0.0291388627986
         0.0292029988323
         0.0292672063748
         0.0293314851205
         0.0293958347556
         0.029460254957
         0.029524745393
         0.029589305723
         0.0296539355971
         0.0297186346562
         0.0297834025322
         0.0298482388474
         0.0299131432148
         0.0299781152378
         0.0300431545101
         0.0301082606158
         0.030173433129
         0.0302386716146
         0.0303039756279
         0.030369344715
         0.0304347784132
         0.0305002762513
         0.0305658377494
         0.0306314624196
         0.0306971497659
         0.0307628992847
         0.0308287104648
         0.0308945827879
         0.0309605157284
         0.0310265087542
         0.0310925613265
         0.0311586729001
         0.0312248429238
         0.0312910708406
         0.0313573560877
         0.031423698097
         0.0314900962954
         0.0315565501045
         0.0316230589415
         0.031689622219
         0.0317562393456
         0.0318229097255
         0.0318896327594
         0.0319564078446
         0.0320232343747
         0.0320901117406
         0.0321570393303
         0.032224016529
         0.0322910427197
         0.0323581172833
         0.0324252395988
         0.0324924090433
         0.0325596249928
         0.032626886822
         0.0326941939044
         0.0327615456131
         0.0328289413205
         0.0328963803989
         0.0329638622203
         0.0330313861571
         0.0330989515821
         0.0331665578688
         0.0332342043916
         0.0333018905258
         0.0333696156485
         0.033437379138
         0.0335051803746
         0.0335730187407
         0.033640893621
         0.0337088044026
         0.0337767504755
         0.0338447312326
         0.0339127460701
         0.0339807943877
         0.0340488755887
         0.0341169890804
         0.0341851342742
         0.034253310586
         0.0343215174362
         0.0343897542501
         0.0344580204583
         0.0345263154964
         0.0345946388058
         0.0346629898336
         0.0347313680329
         0.0347997728632
         0.0348682037903
         0.0349366602869
         0.0350051418326
         0.0350736479142
         0.0351421780259
         0.0352107316695
         0.035279308355
         0.0353479076
         0.0354165289311
         0.0354851718829
         0.0355538359992
         0.0356225208327
         0.0356912259455
         0.0357599509091
         0.0358286953049
         0.0358974587242
         0.0359662407686
         0.03603504105
         0.0361038591911
         0.0361726948256
         0.0362415475983
         0.0363104171653
         0.0363793031945
         0.0364482053654
         0.0365171233699
         0.0365860569121
         0.0366550057085
         0.0367239694886
         0.0367929479949
         0.036861940983
         0.0369309482222
         0.0369999694954
         0.0370690045994
         0.0371380533453
         0.0372071155587
         0.0372761910797
         0.0373452797633
         0.0374143814796
         0.0374834961142
         0.0375526235683
         0.0376217637586
         0.0376909166183
         0.0377600820966
         0.0378292601592
         0.0378984507888
         0.0379676539847
         0.0380368697631
         0.0381060981569
         0.0381753392151
         0.0382445930028
         0.0383138596013
         0.0383831391072
         0.0384524316329
         0.0385217373059
         0.0385910562688
         0.0386603886788
         0.038729734708
         0.0387990945428
         0.0388684683837
         0.038937856445
         0.0390072589552
         0.0390766761558
         0.0391461083019
         0.0392155556617
